(File created: Monday December 15 2025 - 02:00 PM)
(for Carvera from Vectric)
(VECTRIC POST REVISION)
(AA6001CAC4E9696A3EC4F9B49CBCFB6D)
G90G54
G17
G21

T1M6
G0Z20.320
G0X0.000Y0.000
S10000M3
G0X46.598Y0.001
G0Z5.080
G1Z-1.000F300.0
G1X0.040F1000.0
X0.004Y0.004
X0.000Y0.058
Y2.224
X46.815
X46.854Y2.337
X46.940Y2.513
X47.039Y2.704
X47.164Y2.881
X47.311Y3.038
X47.386Y3.113
X47.461Y3.188
X47.536Y3.264
X47.676Y3.396
X47.831Y3.511
X47.999Y3.606
X48.176Y3.679
X48.324Y3.810
X48.488Y3.921
X48.663Y4.011
X48.847Y4.100
X49.042Y4.165
X49.244Y4.205
X49.447Y4.218
X49.917
X49.941Y4.241
X50.016Y4.316
X50.091Y4.391
X50.151Y4.446
X0.000
Y6.669
G0Z5.080
G0X63.460Y0.001
G1Z-1.000F300.0
G1X56.503F1000.0
X56.544Y0.043
X56.619Y0.118
X56.694Y0.193
X56.841Y0.351
X56.966Y0.528
X57.065Y0.719
X57.154Y0.902
X57.219Y1.097
X57.259Y1.299
X57.272Y1.503
Y1.954
X57.259Y2.157
X57.246Y2.224
X63.500
Y4.446
X53.296
G0Z5.080
G0X0.000Y6.669
G1Z-1.000F300.0
G1X63.500F1000.0
Y8.891
X0.000
Y11.114
X63.500
Y13.336
X0.000
Y15.559
X63.500
Y17.781
X0.000
Y20.004
X63.500
Y22.226
X0.000
Y24.449
X63.500
Y26.671
X0.000
Y28.894
X63.500
Y31.116
X0.000
Y33.339
X63.500
Y35.561
X0.000
Y37.784
X63.500
Y40.006
X0.000
Y42.229
X63.500
Y44.451
X0.000
Y46.674
X63.500
Y48.896
X0.000
Y51.119
X63.500
Y53.341
X0.000
Y55.564
X63.500
Y57.786
X0.000
Y60.009
X63.500
Y62.231
X0.000
Y64.454
X63.500
Y66.676
X0.000
Y68.899
X63.500
Y71.121
X0.000
Y73.344
X63.500
Y75.566
X0.000
Y77.789
X63.500
Y80.011
X0.000
Y82.234
X43.050
X43.028Y82.255
X42.880Y82.412
X42.756Y82.589
X42.656Y82.780
X42.567Y82.964
X42.502Y83.159
X42.462Y83.361
X42.449Y83.564
Y83.940
X42.462Y84.144
X42.502Y84.346
X42.539Y84.456
X0.000
Y86.678
X44.328
Y86.871
X44.341Y87.075
X44.381Y87.277
X44.446Y87.472
X44.535Y87.655
X44.610Y87.805
X44.709Y87.997
X44.834Y88.174
X44.981Y88.331
X45.056Y88.406
X45.214Y88.553
X45.391Y88.678
X45.582Y88.777
X45.852Y88.899
X0.040
G0Z5.080
G0X45.850Y82.234
G1Z-1.000F300.0
G1X63.500F1000.0
Y84.456
X50.084
X50.150Y84.642
X50.194Y84.855
X50.208Y85.067
Y85.593
X50.194Y85.805
X50.151Y86.015
X50.080Y86.219
X49.982Y86.410
X49.862Y86.584
X49.801Y86.678
X63.500
Y88.842
X63.496Y88.896
X63.460Y88.899
X47.331
G0Z5.080
G0X52.533Y0.001
G1Z-1.000F300.0
G1X52.516F1000.0
G0Z5.080
G0X46.598Y0.000
G1Z-1.000F300.0
G1X46.582Y0.225F1000.0
Y0.526
G2X46.681Y1.078I1.587J0.000
G1X46.657Y1.353
Y1.428
G2X46.750Y1.961I1.588J0.000
G2X46.940Y2.513I1.570J-0.233
G2X47.311Y3.038I1.455J-0.634
G1X47.386Y3.113
X47.461Y3.188
X47.536Y3.264
G2X48.176Y3.679I1.159J-1.084
G2X48.663Y4.011I1.121J-1.124
G2X49.447Y4.218I0.784J-1.380
G1X49.917
X49.941Y4.241
X50.016Y4.316
X50.091Y4.391
G2X50.863Y4.846I1.159J-1.084
G2X51.476Y4.969I0.613J-1.464
G1X51.852
G2X52.465Y4.846I0.000J-1.588
G2X52.934Y4.643I-0.388J-1.539
G2X53.538Y4.241I-0.556J-1.487
G1X53.613Y4.165
X53.688Y4.090
X53.763Y4.015
X53.992Y3.747
G2X54.708Y3.917I0.715J-1.417
G1X55.309
G2X56.093Y3.710I0.000J-1.588
G2X56.619Y3.339I-0.634J-1.455
G1X56.694Y3.264
G2X57.065Y2.738I-1.084J-1.159
G2X57.272Y1.954I-1.380J-0.784
G1Y1.503
G2X57.065Y0.719I-1.587J0.000
G2X56.694Y0.193I-1.455J0.634
G1X56.619Y0.118
X56.544Y0.043
X56.502Y0.000
X63.442
X63.496Y0.004
X63.500Y0.058
Y88.842
X63.496Y88.896
X63.442Y88.900
X47.328
X47.601Y88.777
G2X48.127Y88.406I-0.634J-1.455
G1X48.202Y88.331
X48.277Y88.256
G2X48.648Y87.730I-1.084J-1.159
G1X48.767Y87.468
G2X49.235Y87.210I-0.522J-1.499
G2X49.862Y86.584I-0.765J-1.391
G2X50.208Y85.593I-1.241J-0.990
G1Y85.067
G2X49.705Y83.908I-1.587J0.000
G1X49.630Y83.833
X49.555Y83.758
X49.480Y83.683
X49.404Y83.607
G2X48.879Y83.236I-1.159J1.084
G1X48.483Y83.077
X48.257Y83.002
G2X47.644Y82.879I-0.613J1.464
G1X47.343
G2X46.730Y83.002I0.000J1.587
G1X46.456Y83.098
G2X46.023Y82.405I-1.518J0.466
G1X45.948Y82.330
X45.872Y82.255
G2X45.347Y81.884I-1.159J1.084
G2X44.563Y81.676I-0.784J1.380
G1X44.337
G2X43.553Y81.884I0.000J1.587
G2X43.028Y82.255I0.634J1.455
G2X42.656Y82.780I1.084J1.159
G2X42.449Y83.564I1.380J0.784
G1Y83.940
G2X42.656Y84.724I1.588J0.000
G2X43.478Y85.546I1.455J-0.634
G2X44.262Y85.753I0.784J-1.380
G1X44.517
X44.420Y86.112
G2X44.328Y86.646I1.495J0.533
G1Y86.871
G2X44.535Y87.655I1.587J0.000
G1X44.610Y87.805
G2X44.981Y88.331I1.455J-0.634
G1X45.056Y88.406
G2X45.582Y88.777I1.159J-1.084
G1X45.855Y88.900
X0.058
X0.004Y88.896
X0.000Y88.842
Y0.058
X0.004Y0.004
X0.058Y0.000
X46.598
G0Z5.080
G0X52.515
G1Z-1.000F300.0
G1X52.534F1000.0
X52.528Y0.015
X52.515Y0.000
G0Z5.080
G0X46.207Y0.001
G1Z-2.000F300.0
G1X0.040F1000.0
X0.004Y0.004
X0.000Y0.058
Y2.224
X46.548
X46.562Y2.294
X46.630Y2.492
X46.697Y2.696
X46.789Y2.888
X46.889Y3.080
X47.014Y3.256
X47.161Y3.414
X47.318Y3.561
X47.495Y3.686
X47.686Y3.785
X47.837Y3.860
X48.046Y3.960
X48.269Y4.028
X48.513Y4.161
X48.663Y4.236
X48.838Y4.322
X49.024Y4.386
X49.214Y4.426
X49.284Y4.446
X0.000
Y6.669
G0Z5.080
G0X63.460Y0.001
G1Z-2.000F300.0
G1X56.954F1000.0
X56.994Y0.043
X57.148Y0.208
X57.277Y0.396
X57.379Y0.600
X57.449Y0.814
X57.517Y1.013
X57.559Y1.219
X57.573Y1.428
Y1.879
X57.559Y2.088
X57.532Y2.224
X63.500
Y4.446
X54.707
G0Z5.080
G0X0.000Y6.669
G1Z-2.000F300.0
G1X63.500F1000.0
Y8.891
X0.000
Y11.114
X63.500
Y13.336
X0.000
Y15.559
X63.500
Y17.781
X0.000
Y20.004
X63.500
Y22.226
X0.000
Y24.449
X63.500
Y26.671
X0.000
Y28.894
X63.500
Y31.116
X0.000
Y33.339
X63.500
Y35.561
X0.000
Y37.784
X63.500
Y40.006
X0.000
Y42.229
X63.500
Y44.451
X0.000
Y46.674
X63.500
Y48.896
X0.000
Y51.119
X63.500
Y53.341
X0.000
Y55.564
X63.500
Y57.786
X0.000
Y60.009
X63.500
Y62.231
X0.000
Y64.454
X63.500
Y66.676
X0.000
Y68.899
X63.500
Y71.121
X0.000
Y73.344
X63.500
Y75.566
X0.000
Y77.789
X63.500
Y80.011
X45.468
X45.474Y80.108
Y80.784
X45.464Y80.959
X45.435Y81.132
X45.387Y81.301
X45.551Y81.390
X45.703Y81.497
X45.845Y81.585
X45.977Y81.688
X46.098Y81.804
X46.173Y81.879
X46.248Y81.954
X46.323Y82.029
X46.482Y82.201
X46.504Y82.234
X63.500
Y84.456
X50.337
X50.386Y84.604
X50.454Y84.803
X50.495Y85.009
X50.509Y85.218
Y85.518
X50.495Y85.727
X50.454Y85.934
X50.386Y86.132
X50.319Y86.335
X50.226Y86.528
X50.149Y86.678
X63.500
Y88.842
X63.496Y88.896
X63.460Y88.899
X47.964
G0Z5.080
G0X41.178Y80.011
G1Z-2.000F300.0
G1X0.000F1000.0
Y82.234
X42.051
X42.067Y82.248
X42.254Y82.378
X42.181Y82.539
X42.126Y82.707
X42.091Y82.881
X42.040Y83.054
X42.009Y83.233
X41.998Y83.414
Y84.015
X42.011Y84.219
X42.051Y84.421
X42.063Y84.456
X0.000
Y86.678
X44.105
X44.102Y86.721
Y87.021
X44.116Y87.230
X44.158Y87.437
X44.226Y87.635
X44.296Y87.849
X44.398Y88.053
X44.527Y88.241
X44.681Y88.406
X44.756Y88.481
X44.831Y88.557
X44.906Y88.632
X45.061Y88.777
X45.233Y88.899
X0.040
G0Z5.080
G0X0.000Y0.058
G1Z-2.000F300.0
G1X0.004Y0.004F1000.0
X0.058Y0.000
X46.207
Y0.376
G2X46.414Y1.160I1.588J0.000
G1X46.441Y1.219
X46.507Y1.535
Y1.879
G2X46.630Y2.492I1.588J0.000
G1X46.789Y2.888
G2X47.161Y3.414I1.455J-0.634
G2X47.686Y3.785I1.159J-1.084
G1X47.837Y3.860
G2X48.269Y4.028I0.784J-1.380
G1X48.513Y4.161
X48.663Y4.236
G2X49.214Y4.426I0.784J-1.380
G2X49.748Y4.518I0.533J-1.495
G1X49.767
G2X50.241Y4.837I1.108J-1.137
G1X50.638Y4.996
G2X51.251Y5.119I0.613J-1.464
G1X51.353
G2X51.744Y5.363I1.026J-1.212
G2X52.528Y5.570I0.784J-1.380
G1X52.979
G2X53.763Y5.363I0.000J-1.588
G2X54.289Y4.992I-0.634J-1.455
G1X54.364Y4.917
G2X54.735Y4.391I-1.084J-1.159
G1X54.850Y4.143
X55.459
G2X56.243Y3.935I0.000J-1.588
G2X56.769Y3.564I-0.634J-1.455
G1X56.844Y3.489
X56.919Y3.414
G2X57.290Y2.888I-1.084J-1.159
G1X57.449Y2.492
G2X57.573Y1.879I-1.464J-0.613
G1Y1.428
G2X57.449Y0.814I-1.587J0.000
G2X56.994Y0.043I-1.539J0.388
G1X56.953Y0.000
X63.442
X63.496Y0.004
X63.500Y0.058
Y88.842
X63.496Y88.896
X63.442Y88.900
X47.962
G2X48.428Y88.557I-0.694J-1.428
G1X48.503Y88.481
X48.578Y88.406
G2X48.949Y87.881I-1.084J-1.159
G1X49.062Y87.635
X49.385Y87.436
G2X49.780Y87.129I-0.765J-1.391
G1X49.855Y87.054
G2X50.226Y86.528I-1.084J-1.159
G1X50.386Y86.132
G2X50.509Y85.518I-1.464J-0.613
G1Y85.218
G2X50.386Y84.604I-1.588J0.000
G1X50.226Y84.208
G2X49.855Y83.683I-1.455J0.634
G1X49.780Y83.607
G2X49.385Y83.301I-1.159J1.084
G1X49.029Y83.086
X48.633Y82.927
X48.407Y82.852
G2X47.794Y82.728I-0.613J1.464
G1X47.268
X46.913Y82.769
G2X46.624Y82.405I-1.374J0.796
G1X46.613Y82.393
G2X46.323Y82.029I-1.374J0.796
G1X46.248Y81.954
X46.173Y81.879
X46.098Y81.804
G2X45.703Y81.497I-1.159J1.084
G1X45.387Y81.301
G2X45.474Y80.784I-1.501J-0.517
G1Y80.108
G2X45.267Y79.324I-1.588J0.000
G2X44.896Y78.798I-1.455J0.634
G1X44.820Y78.723
X44.745Y78.648
G2X43.586Y78.144I-1.159J1.084
G1X43.135
G2X42.351Y78.352I0.000J1.588
G2X41.825Y78.723I0.634J1.455
G1X41.750Y78.798
G2X41.379Y79.324I1.084J1.159
G2X41.172Y80.108I1.380J0.784
G1Y80.634
G2X41.379Y81.418I1.588J0.000
G2X41.750Y81.944I1.455J-0.634
G1X41.825Y82.019
X41.900Y82.094
G2X42.254Y82.378I1.159J-1.084
G2X42.091Y82.881I1.407J0.736
G2X41.998Y83.414I1.495J0.533
G1Y84.015
G2X42.205Y84.799I1.588J0.000
G2X42.577Y85.325I1.455J-0.634
G1X42.652Y85.400
X42.892Y85.611
X43.103Y85.851
X43.178Y85.926
X43.253Y86.001
G2X43.779Y86.373I1.159J-1.084
G1X44.116Y86.516
X44.102Y86.721
Y87.021
G2X44.226Y87.635I1.588J0.000
G2X44.681Y88.406I1.539J-0.388
G1X44.756Y88.481
X44.831Y88.557
X44.906Y88.632
X45.235Y88.900
X0.058
X0.004Y88.896
X0.000Y88.842
Y0.058
G0Z5.080
G0X45.906Y0.001
G1Z-3.000F300.0
G1X0.040F1000.0
X0.004Y0.004
X0.000Y0.058
Y2.224
X46.370
X46.371Y2.238
X46.412Y2.444
X46.480Y2.642
X46.546Y2.846
X46.639Y3.039
X46.738Y3.230
X46.863Y3.407
X47.010Y3.564
X47.085Y3.639
X47.161Y3.715
X47.318Y3.862
X47.495Y3.986
X47.686Y4.086
X47.900Y4.187
X48.128Y4.255
X48.362Y4.289
X48.637Y4.446
X0.000
Y6.669
G0Z5.080
G0X63.460Y0.001
G1Z-3.000F300.0
G1X57.388F1000.0
X57.510Y0.182
X57.607Y0.380
X57.675Y0.589
X57.743Y0.787
X57.784Y0.993
X57.798Y1.202
Y1.954
X57.785Y2.157
X57.772Y2.224
X63.500
Y4.446
X55.209
G0Z5.080
G0X0.000Y6.669
G1Z-3.000F300.0
G1X63.500F1000.0
Y8.891
X0.000
Y11.114
X47.643
X47.602Y11.198
X47.537Y11.393
X47.497Y11.595
X47.484Y11.798
Y12.174
X47.497Y12.378
X47.537Y12.579
X47.602Y12.775
X47.691Y12.958
X47.779Y13.130
X47.886Y13.289
X47.898Y13.336
X0.000
Y15.559
G0Z5.080
G0X51.478Y11.114
G1Z-3.000F300.0
G1X63.500F1000.0
Y13.336
X52.183
G0Z5.080
G0X0.000Y15.559
G1Z-3.000F300.0
G1X63.500F1000.0
Y17.781
X0.000
Y20.004
X63.500
Y22.226
X0.000
Y24.449
X63.500
Y26.671
X0.000
Y28.894
X63.500
Y31.116
X0.000
Y33.339
X63.500
Y35.561
X0.000
Y37.784
X63.500
Y40.006
X0.000
Y42.229
X63.500
Y44.451
X0.000
Y46.674
X63.500
Y48.896
X0.000
Y51.119
X63.500
Y53.341
X0.000
Y55.564
X63.500
Y57.786
X0.000
Y60.009
X63.500
Y62.231
X0.000
Y64.454
X63.500
Y66.676
X0.000
Y68.899
X63.500
Y71.121
X0.000
Y73.344
X63.500
Y75.566
X0.000
Y77.789
X42.290
X42.133Y77.899
X41.975Y78.046
X41.900Y78.122
X41.825Y78.197
X41.667Y78.368
X41.536Y78.561
X41.525Y78.572
X41.449Y78.648
X41.374Y78.723
X41.227Y78.880
X41.102Y79.057
X41.003Y79.248
X40.914Y79.432
X40.849Y79.627
X40.809Y79.829
X40.797Y80.011
X0.000
Y82.234
X41.450
X41.489Y82.370
X41.530Y82.560
X41.594Y82.746
X41.679Y82.921
X41.797Y83.141
X41.790Y83.181
X41.739Y83.355
X41.708Y83.534
X41.698Y83.715
Y83.790
X41.708Y83.971
X41.739Y84.150
X41.790Y84.323
X41.818Y84.456
X0.000
Y86.678
X43.481
X43.528Y86.722
X43.665Y86.827
X43.812Y86.917
X43.802Y87.096
Y87.172
X43.830Y87.467
X43.711Y87.616
X43.611Y87.780
X43.532Y87.955
X43.474Y88.136
X43.406Y88.334
X43.365Y88.541
X43.351Y88.750
Y88.899
X0.040
G0Z5.080
G0X45.032Y77.789
G1Z-3.000F300.0
G1X63.500F1000.0
Y80.011
X45.955
X45.924Y80.141
X45.903Y80.371
X45.848Y80.596
X45.901Y80.814
X45.943Y80.902
X46.033Y81.087
X46.098Y81.282
X46.283Y81.378
X46.455Y81.497
X46.597Y81.585
X46.729Y81.688
X46.849Y81.804
X46.925Y81.879
X47.135Y82.120
X47.275Y82.234
X63.500
Y84.456
X50.986
X51.021Y84.633
X51.035Y84.842
Y84.917
X51.021Y85.126
X50.980Y85.332
X50.912Y85.530
X50.836Y85.756
X50.761Y85.981
X50.695Y86.185
X50.602Y86.378
X50.507Y86.563
X50.427Y86.678
X63.500
Y88.842
X63.496Y88.896
X63.460Y88.899
X49.402
G0Z5.080
G0X52.114Y13.539
G1Z-3.000F300.0
G2X52.237Y12.925I-1.464J-0.613F1000.0
G1Y12.850
G2X52.114Y12.237I-1.588J0.000
G1X51.955Y11.841
G2X51.584Y11.315I-1.455J0.634
G1X51.575Y11.306
X51.504Y11.164
G2X51.133Y10.639I-1.455J0.634
G1X51.058Y10.564
X50.983Y10.488
G2X50.211Y10.033I-1.159J1.084
G2X49.598Y9.910I-0.613J1.464
G1X49.372
G2X48.588Y10.117I0.000J1.588
G2X48.062Y10.488I0.634J1.455
G2X47.691Y11.014I1.084J1.159
G2X47.484Y11.798I1.380J0.784
G1Y12.174
G2X47.691Y12.958I1.588J0.000
G1X47.886Y13.289
G2X48.067Y13.785I1.561J-0.289
G2X48.438Y14.310I1.455J-0.634
G1X48.513Y14.386
X48.588Y14.461
G2X49.515Y14.947I1.159J-1.084
G2X50.049Y15.039I0.533J-1.495
G1X50.124
G2X50.737Y14.916I0.000J-1.588
G2X51.509Y14.461I-0.388J-1.539
G1X51.584Y14.386
X51.659Y14.310
G2X52.114Y13.539I-1.084J-1.159
G0Z5.080
G0X45.906Y0.000
G1Z-3.000F300.0
G1Y0.225F1000.0
G2X46.029Y0.839I1.588J0.000
G2X46.279Y1.377I1.539J-0.388
G1X46.330Y1.515
X46.357Y1.610
Y2.029
G2X46.480Y2.642I1.588J0.000
G1X46.639Y3.039
G2X47.010Y3.564I1.455J-0.634
G1X47.085Y3.639
X47.161Y3.715
G2X47.686Y4.086I1.159J-1.084
G2X48.362Y4.289I0.784J-1.380
G1X48.663Y4.461
X49.038Y4.615
X49.114Y4.691
X49.190Y4.767
X49.265Y4.842
X49.340Y4.917
G2X49.866Y5.288I1.159J-1.084
G1X50.016Y5.363
X50.166Y5.438
G2X50.950Y5.645I0.784J-1.380
G1X51.420
X51.444Y5.668
G2X51.970Y6.040I1.159J-1.084
G2X52.754Y6.247I0.784J-1.380
G1X53.130
G2X53.914Y6.040I0.000J-1.588
G2X54.439Y5.668I-0.634J-1.455
G1X54.515Y5.593
X54.590Y5.518
X54.665Y5.443
G2X55.036Y4.917I-1.084J-1.159
G2X55.226Y4.368I-1.380J-0.784
G1X55.384
G2X55.997Y4.245I0.000J-1.588
G1X56.394Y4.086
G2X56.919Y3.715I-0.634J-1.455
G1X56.994Y3.639
G2X57.301Y3.245I-1.084J-1.159
G1X57.516Y2.888
X57.591Y2.738
G2X57.798Y1.954I-1.380J-0.784
G1Y1.202
G2X57.675Y0.589I-1.588J0.000
G2X57.387Y0.000I-1.539J0.388
G1X63.442
X63.496Y0.004
X63.500Y0.058
Y88.842
X63.496Y88.896
X63.442Y88.900
X49.401
X49.550Y88.632
G2X49.757Y87.848I-1.380J-0.784
G1Y87.453
X49.780Y87.429
X49.855Y87.354
X49.930Y87.279
X50.006Y87.204
X50.081Y87.129
G2X50.388Y86.734I-1.084J-1.159
G1X50.602Y86.378
X50.761Y85.981
X50.836Y85.756
X50.912Y85.530
G2X51.035Y84.917I-1.464J-0.613
G1Y84.842
G2X50.912Y84.229I-1.587J0.000
G2X50.457Y83.457I-1.539J0.388
G1X50.381Y83.382
G2X49.610Y82.927I-1.159J1.084
G2X48.996Y82.804I-0.613J1.464
G1X48.921
X48.814Y82.807
X48.708Y82.777
X48.483Y82.701
G2X47.869Y82.578I-0.613J1.464
G1X47.566
G2X47.135Y82.120I-1.350J0.836
G1X46.925Y81.879
X46.849Y81.804
G2X46.455Y81.497I-1.159J1.084
G1X46.098Y81.282
X45.943Y80.902
X45.901Y80.814
X45.848Y80.596
G2X45.924Y80.141I-1.510J-0.488
G2X46.000Y79.657I-1.512J-0.484
G1Y79.582
G2X45.877Y78.968I-1.588J0.000
G2X45.578Y78.366I-1.539J0.388
G2X44.821Y77.675I-1.391J0.765
G1X44.670Y77.600
G2X43.886Y77.393I-0.784J1.380
G1X43.436
G2X42.651Y77.600I0.000J1.587
G1X42.501Y77.675
G2X41.975Y78.046I0.634J1.455
G1X41.900Y78.122
X41.825Y78.197
G2X41.536Y78.561I1.084J1.159
G1X41.525Y78.572
X41.449Y78.648
X41.374Y78.723
G2X41.003Y79.248I1.084J1.159
G2X40.796Y80.033I1.380J0.784
G1Y80.634
G2X41.003Y81.418I1.588J0.000
G2X41.374Y81.944I1.455J-0.634
G1X41.385Y81.955
X41.404Y81.987
X41.489Y82.370
G2X41.679Y82.921I1.570J-0.233
G1X41.797Y83.141
X41.790Y83.181
G2X41.698Y83.715I1.495J0.533
G1Y83.790
G2X41.790Y84.323I1.588J0.000
G2X41.980Y84.875I1.570J-0.233
G2X42.351Y85.400I1.455J-0.634
G1X42.426Y85.475
X42.501Y85.551
X42.577Y85.626
X42.785Y85.813
X42.807Y85.852
G2X43.178Y86.377I1.455J-0.634
G1X43.253Y86.452
X43.328Y86.528
X43.403Y86.603
G2X43.812Y86.917I1.159J-1.084
G1X43.802Y87.096
Y87.172
X43.830Y87.467
G2X43.474Y88.136I1.184J1.057
G2X43.351Y88.750I1.464J0.613
G1Y88.900
X0.058
X0.004Y88.896
X0.000Y88.842
Y0.058
X0.004Y0.004
X0.058Y0.000
X45.906
G0Z5.080
G0X11.205Y0.001
G1Z-4.000F300.0
G1X0.040F1000.0
X0.004Y0.004
X0.000Y0.058
Y2.224
X9.992
X9.985Y2.330
Y2.780
X9.996Y2.961
X10.027Y3.140
X10.078Y3.314
X10.118Y3.505
X10.182Y3.690
X10.268Y3.865
X10.367Y4.056
X10.492Y4.233
X10.639Y4.391
X10.694Y4.446
G0Z5.080
G0X45.681Y0.001
G1Z-4.000F300.0
G1X14.570F1000.0
X14.702Y0.150
X14.816Y0.315
X14.907Y0.493
X14.982Y0.644
X15.071Y0.827
X15.137Y1.022
X15.176Y1.224
X15.189Y1.428
Y1.954
X15.175Y2.166
X15.163Y2.224
X43.964
X43.952Y2.405
Y2.780
X43.965Y2.984
X44.005Y3.186
X44.070Y3.381
X44.159Y3.565
X44.328Y3.860
Y4.434
X44.329Y4.446
X13.879
X13.859Y4.466
X13.784Y4.541
X13.709Y4.616
X13.553Y4.762
X13.376Y4.887
X13.182Y4.988
X12.975Y5.061
X12.762Y5.105
X12.550Y5.119
X12.024
X11.811Y5.105
X11.598Y5.061
X11.392Y4.988
X11.197Y4.887
X11.020Y4.762
X10.864Y4.616
X10.789Y4.541
X10.714Y4.466
X10.694Y4.446
X0.000
Y6.669
G0Z5.080
G0X10.694Y4.446
G1Z-4.000F300.0
G1X0.000F1000.0
Y6.669
X13.103
X13.124Y6.563
X13.198Y6.357
X13.299Y6.162
X13.424Y5.985
X13.570Y5.829
X13.645Y5.754
X13.720Y5.679
X13.885Y5.526
X14.073Y5.396
X14.277Y5.294
X14.491Y5.224
X14.690Y5.156
X14.896Y5.114
X15.105Y5.101
X15.330
X15.534Y5.114
X15.736Y5.153
X15.931Y5.219
X16.114Y5.308
X16.306Y5.407
X16.482Y5.532
X16.640Y5.679
X16.715Y5.754
X16.862Y5.912
X16.987Y6.089
X17.086Y6.280
X17.175Y6.463
X17.241Y6.658
X17.243Y6.669
X52.320
X52.400Y6.684
X52.604Y6.698
X53.280
X53.483Y6.684
X53.564Y6.669
G0Z5.080
G0X57.685Y0.001
G1Z-4.000F300.0
G1X63.460F1000.0
X63.496Y0.004
X63.500Y0.058
Y2.224
X58.642
X58.657Y2.255
X58.722Y2.450
X58.762Y2.652
X58.775Y2.856
Y3.231
X58.762Y3.435
X58.722Y3.637
X58.657Y3.832
X58.568Y4.015
X58.469Y4.207
X58.344Y4.384
X58.285Y4.446
X63.500
Y6.669
X53.564
G0Z5.080
G0X63.500Y8.891
G1Z-4.000F300.0
G1X17.891F1000.0
G0Z5.080
G0X0.000Y6.669
G1Z-4.000F300.0
G1X13.103F1000.0
X13.081Y6.776
X13.066Y6.989
Y7.590
X13.079Y7.793
X13.119Y7.995
X13.184Y8.190
X13.273Y8.373
X13.265Y8.404
X13.197Y8.603
X13.155Y8.809
X13.150Y8.891
X0.000
Y11.114
X14.113
X14.129Y11.125
X14.321Y11.225
X14.504Y11.314
X14.699Y11.379
X14.901Y11.419
X15.105Y11.432
X15.706
X15.910Y11.419
X16.111Y11.379
X16.307Y11.314
X16.490Y11.225
X16.640Y11.150
X16.709Y11.114
X46.657
Y10.972
X46.671Y10.768
X46.710Y10.566
X46.775Y10.371
X46.865Y10.187
X46.964Y9.996
X47.089Y9.819
X47.236Y9.662
X47.311Y9.587
X47.386Y9.512
X47.552Y9.358
X47.739Y9.228
X47.943Y9.127
X48.158Y9.056
X48.356Y8.988
X48.562Y8.947
X48.771Y8.933
X48.996
X49.177Y8.944
X49.356Y8.975
X49.530Y9.026
X49.721Y9.066
X49.906Y9.130
X50.081Y9.216
X50.272Y9.315
X50.449Y9.440
X50.607Y9.587
X50.682Y9.662
X50.757Y9.737
X50.832Y9.812
X50.907Y9.887
X50.983Y9.962
X51.058Y10.038
X51.133Y10.113
X51.208Y10.188
X51.283Y10.263
X51.399Y10.383
X51.502Y10.516
X51.590Y10.658
X51.709Y10.829
X51.805Y11.014
X51.855Y11.114
X63.500
Y13.336
X52.460
X52.449Y13.512
X52.406Y13.723
X52.334Y13.926
X52.237Y14.117
X52.116Y14.291
X52.028Y14.433
X51.925Y14.566
X51.809Y14.686
X51.683Y14.807
X51.544Y14.913
X51.395Y15.003
X51.208Y15.212
X51.133Y15.287
X51.058Y15.362
X50.900Y15.509
X50.830Y15.559
X63.500
Y17.781
G0Z5.080
G0X46.983Y13.336
G1Z-4.000F300.0
G1X0.000F1000.0
Y15.559
X47.839
G0Z5.080
G0X63.500Y17.781
G1Z-4.000F300.0
G1X0.000F1000.0
Y20.004
X63.500
Y22.226
X0.000
Y24.449
X63.500
Y26.671
X0.000
Y28.894
X63.500
Y31.116
X0.000
Y33.339
X63.500
Y35.561
X0.000
Y37.784
X63.500
Y40.006
X0.000
Y42.229
X63.500
Y44.451
X0.000
Y46.674
X63.500
Y48.896
X0.000
Y51.119
X63.500
Y53.341
X0.000
Y55.564
X63.500
Y57.786
X0.000
Y60.009
X63.500
Y62.231
X0.000
Y64.454
X63.500
Y66.676
X0.000
Y68.899
X63.500
Y71.121
X0.000
Y73.344
X63.500
Y75.566
X43.827
X43.902Y75.606
X44.094Y75.747
X44.264Y75.917
X44.406Y76.110
X44.515Y76.318
X44.604Y76.501
X44.670Y76.696
X44.709Y76.898
X44.722Y77.102
Y77.261
X44.971Y77.375
X45.162Y77.474
X45.339Y77.599
X45.497Y77.746
X45.540Y77.789
X63.500
Y80.011
X49.331
X49.368Y80.205
X49.382Y80.408
Y80.784
X49.368Y80.993
X49.326Y81.199
X49.258Y81.397
X49.188Y81.611
X49.087Y81.814
X48.960Y82.000
X48.872Y82.142
X48.800Y82.234
X63.500
Y84.456
X51.391
X51.397Y84.483
X51.411Y84.692
Y84.992
X51.397Y85.201
X51.355Y85.408
X51.287Y85.606
X51.221Y85.809
X51.128Y86.002
X51.016Y86.215
X50.975Y86.401
X50.912Y86.582
X50.865Y86.678
X63.500
Y88.842
X63.496Y88.896
X63.460Y88.899
X50.052
G0Z5.080
G0X41.614Y75.566
G1Z-4.000F300.0
G1X0.000F1000.0
Y77.789
X40.717
X40.769Y77.941
X40.834Y78.141
X40.925Y78.332
X41.040Y78.508
X40.985Y78.525
X40.776Y78.555
X40.572Y78.613
X40.382Y78.653
X40.196Y78.717
X40.021Y78.802
X39.836Y78.898
X39.665Y79.017
X39.523Y79.105
X39.391Y79.208
X39.270Y79.324
X39.123Y79.481
X38.998Y79.658
X38.899Y79.850
X38.824Y80.000
X38.818Y80.011
X0.000
Y82.234
X38.940
X39.048Y82.387
X39.195Y82.545
X39.270Y82.620
X39.428Y82.767
X39.604Y82.892
X39.796Y82.991
X39.979Y83.080
X40.174Y83.145
X40.376Y83.185
X40.580Y83.198
X41.181
X41.282Y83.195
X41.229Y83.306
X41.153Y83.457
X41.064Y83.640
X40.999Y83.835
X40.959Y84.037
X40.946Y84.241
Y84.456
X0.000
Y86.678
X42.958
X43.034Y86.801
X43.137Y86.933
X43.253Y87.054
X43.384Y87.178
X43.528Y87.288
X43.499Y87.372
X43.333Y87.665
X43.258Y87.815
X43.168Y87.999
X43.103Y88.194
X43.063Y88.396
X43.050Y88.599
Y88.899
X0.040
G0Z5.080
G0X11.206Y0.000
G1Z-4.000F300.0
G2X10.869Y0.493I1.118J1.127F1000.0
G1X10.715Y0.868
X10.714Y0.870
X10.639Y0.945
X10.564Y1.020
G2X10.192Y1.545I1.084J1.159
G2X9.985Y2.330I1.380J0.784
G1Y2.780
G2X10.078Y3.314I1.588J0.000
G2X10.268Y3.865I1.570J-0.233
G2X10.639Y4.391I1.455J-0.634
G1X10.714Y4.466
X10.789Y4.541
X10.864Y4.616
G2X12.024Y5.119I1.159J-1.084
G1X12.550
G2X13.709Y4.616I0.000J-1.588
G1X13.784Y4.541
X13.859Y4.466
X13.935Y4.391
X14.010Y4.316
G2X14.381Y3.790I-1.084J-1.159
G2X14.571Y3.239I-1.380J-0.784
G1X14.576Y3.225
X14.611Y3.188
X14.686Y3.113
G2X15.189Y1.954I-1.084J-1.159
G1Y1.428
G2X14.982Y0.644I-1.588J0.000
G1X14.907Y0.493
G2X14.569Y0.000I-1.455J0.634
G1X45.681
Y0.225
X45.709Y0.522
G2X45.056Y0.724I0.132J1.582
G2X44.530Y1.095I0.634J1.455
G2X44.159Y1.621I1.084J1.159
G2X43.952Y2.405I1.380J0.784
G1Y2.780
G2X44.159Y3.565I1.588J0.000
G1X44.328Y3.860
Y4.434
G2X44.535Y5.218I1.587J0.000
G2X44.906Y5.744I1.455J-0.634
G2X45.301Y6.050I1.159J-1.084
G2X46.291Y6.397I0.990J-1.241
G1X46.817
G2X47.601Y6.190I0.000J-1.588
G2X48.127Y5.819I-0.634J-1.455
G1X48.202Y5.744
X48.277Y5.668
X48.352Y5.593
X48.617Y5.270
X48.728Y5.213
X48.929Y5.108
X49.284Y5.374
X49.640Y5.589
X49.660Y5.599
X49.885Y5.750
G2X50.875Y6.096I0.990J-1.241
G1X51.195
G2X51.669Y6.415I1.108J-1.137
G1X51.819Y6.490
G2X52.604Y6.698I0.784J-1.380
G1X53.280
G2X54.064Y6.490I0.000J-1.588
G1X54.214Y6.415
G2X54.740Y6.044I-0.634J-1.455
G1X54.815Y5.969
X54.890Y5.894
X54.965Y5.819
X55.041Y5.744
G2X55.347Y5.349I-1.084J-1.159
G2X55.614Y4.857I-1.241J-0.990
G1X55.727Y4.912
G2X56.511Y5.119I0.784J-1.380
G1X56.887
G2X57.671Y4.912I0.000J-1.588
G2X58.197Y4.541I-0.634J-1.455
G2X58.568Y4.015I-1.084J-1.159
G2X58.775Y3.231I-1.380J-0.784
G1Y2.856
G2X58.568Y2.072I-1.587J0.000
G2X58.197Y1.546I-1.455J0.634
G1X58.122Y1.471
X58.024Y1.375
Y1.127
G2X57.900Y0.514I-1.587J0.000
G1X57.741Y0.118
X57.684Y0.000
X63.442
X63.496Y0.004
X63.500Y0.058
Y88.842
X63.496Y88.896
X63.442Y88.900
X50.051
X50.151Y88.707
G2X50.359Y87.923I-1.380J-0.784
G1Y87.547
X50.350Y87.386
X50.381Y87.354
X50.457Y87.279
G2X50.828Y86.753I-1.084J-1.159
G2X51.016Y86.215I-1.380J-0.784
G1X51.128Y86.002
X51.287Y85.606
G2X51.411Y84.992I-1.464J-0.613
G1Y84.692
G2X51.287Y84.078I-1.588J0.000
G1X51.128Y83.682
G2X50.757Y83.156I-1.455J0.634
G2X50.231Y82.785I-1.159J1.084
G1X50.081Y82.710
X49.685Y82.551
G2X49.072Y82.428I-0.613J1.464
G1X48.846
X48.602Y82.447
X48.653Y82.394
G2X48.960Y82.000I-1.084J-1.159
G2X49.258Y81.397I-1.241J-0.990
G2X49.382Y80.784I-1.464J-0.613
G1Y80.408
G2X49.174Y79.624I-1.587J0.000
G2X48.803Y79.099I-1.455J0.634
G1X48.728Y79.023
X48.653Y78.948
G2X48.127Y78.577I-1.159J1.084
G2X47.343Y78.370I-0.784J1.380
G1X47.043
G2X46.429Y78.493I0.000J1.587
G1X46.070Y78.632
X45.943Y78.347
G2X45.572Y77.821I-1.455J0.634
G1X45.497Y77.746
G2X44.971Y77.375I-1.159J1.084
G1X44.722Y77.261
Y77.102
G2X44.515Y76.318I-1.588J0.000
G2X43.694Y75.496I-1.455J0.634
G2X42.909Y75.289I-0.784J1.380
G1X42.534
G2X41.750Y75.496I0.000J1.588
G2X41.224Y75.867I0.634J1.455
G2X40.769Y76.639I1.084J1.159
G2X40.646Y77.252I1.464J0.613
G1Y77.327
G2X40.769Y77.941I1.587J0.000
G2X41.040Y78.508I1.539J-0.388
G1X40.985Y78.525
X40.572Y78.613
G2X40.021Y78.802I0.233J1.570
G1X39.665Y79.017
G2X39.270Y79.324I0.765J1.391
G2X38.899Y79.850I1.084J1.159
G1X38.824Y80.000
G2X38.617Y80.784I1.380J0.784
G1Y81.235
G2X38.824Y82.019I1.587J0.000
G2X39.195Y82.545I1.455J-0.634
G1X39.270Y82.620
G2X39.796Y82.991I1.159J-1.084
G2X40.580Y83.198I0.784J-1.380
G1X41.181
X41.282Y83.195
X41.229Y83.306
X41.153Y83.457
G2X40.946Y84.241I1.380J0.784
G1Y84.617
G2X41.153Y85.401I1.588J0.000
G2X41.525Y85.926I1.455J-0.634
G1X41.600Y86.001
X41.675Y86.077
G2X42.446Y86.532I1.159J-1.084
G2X42.939Y86.650I0.613J-1.464
G1X42.946Y86.659
G2X43.253Y87.054I1.391J-0.765
G1X43.528Y87.288
X43.499Y87.372
X43.333Y87.665
X43.258Y87.815
G2X43.050Y88.599I1.380J0.784
G1Y88.900
X0.058
X0.004Y88.896
X0.000Y88.842
Y0.058
X0.004Y0.004
X0.058Y0.000
X11.206
G0Z5.080
G0X16.114Y5.308
G1Z-4.000F300.0
G2X15.330Y5.101I-0.784J1.380F1000.0
G1X15.105
G2X14.491Y5.224I0.000J1.588
G2X13.720Y5.679I0.388J1.539
G1X13.645Y5.754
X13.570Y5.829
G2X13.066Y6.989I1.084J1.159
G1Y7.590
G2X13.273Y8.373I1.588J0.000
G1X13.265Y8.404
G2X13.141Y9.018I1.464J0.613
G1Y9.469
G2X13.349Y10.253I1.588J0.000
G2X13.720Y10.778I1.455J-0.634
G1X13.795Y10.854
G2X14.321Y11.225I1.159J-1.084
G2X15.105Y11.432I0.784J-1.380
G1X15.706
G2X16.490Y11.225I0.000J-1.588
G1X16.640Y11.150
G2X17.166Y10.778I-0.634J-1.455
G1X17.241Y10.703
X17.316Y10.628
G2X17.687Y10.102I-1.084J-1.159
G2X17.895Y9.318I-1.380J-0.784
G1Y8.943
G2X17.687Y8.158I-1.588J0.000
G1X17.612Y8.008
G2X17.277Y7.517I-1.455J0.634
G1X17.293Y7.289
Y7.064
G2X17.086Y6.280I-1.588J0.000
G2X16.715Y5.754I-1.455J0.634
G1X16.640Y5.679
G2X16.114Y5.308I-1.159J1.084
G0Z5.080
G0X46.865Y12.207
G1Z-4.000F300.0
G2X47.117Y12.609I1.455J-0.634F1000.0
G1X47.156Y12.712
X47.178Y12.789
X47.165Y12.818
G2X46.958Y13.602I1.380J0.784
G1Y13.978
G2X47.305Y14.968I1.588J0.000
G2X47.612Y15.362I1.391J-0.765
G2X48.137Y15.734I1.159J-1.084
G2X48.921Y15.941I0.784J-1.380
G1X49.748
G2X50.532Y15.734I0.000J-1.588
G2X51.058Y15.362I-0.634J-1.455
G1X51.133Y15.287
X51.208Y15.212
X51.395Y15.003
G2X51.809Y14.686I-0.745J-1.402
G2X52.116Y14.291I-1.084J-1.159
G2X52.463Y13.301I-1.241J-0.990
G1Y12.550
G2X52.339Y11.936I-1.588J0.000
G2X51.884Y11.165I-1.539J0.388
G1X51.876Y11.156
X51.805Y11.014
X51.590Y10.658
G2X51.283Y10.263I-1.391J0.765
G1X51.208Y10.188
X51.133Y10.113
X51.058Y10.038
X50.983Y9.962
X50.907Y9.887
X50.832Y9.812
X50.757Y9.737
X50.682Y9.662
X50.607Y9.587
G2X50.081Y9.216I-1.159J1.084
G2X49.530Y9.026I-0.784J1.380
G2X48.996Y8.933I-0.533J1.495
G1X48.771
G2X48.158Y9.056I0.000J1.588
G2X47.386Y9.512I0.388J1.539
G1X47.311Y9.587
X47.236Y9.662
G2X46.865Y10.187I1.084J1.159
G2X46.657Y10.972I1.380J0.784
G1Y11.422
G2X46.865Y12.207I1.588J0.000
G0Z5.080
G0X10.437Y0.001
G1Z-5.000F300.0
G1X0.040F1000.0
X0.004Y0.004
X0.000Y0.058
Y2.224
X9.008
Y2.555
X9.022Y2.766
X9.065Y2.977
X9.137Y3.180
X9.234Y3.371
X9.355Y3.545
X9.443Y3.687
X9.546Y3.820
X9.662Y3.940
X9.782Y4.056
X9.915Y4.159
X10.057Y4.247
X10.065Y4.253
X10.138Y4.437
X10.143Y4.446
X0.000
Y6.669
X12.765
X12.746Y6.724
X12.704Y6.930
X12.691Y7.139
Y7.440
X12.704Y7.649
X12.746Y7.855
X12.814Y8.053
X12.880Y8.256
X12.973Y8.449
X12.975Y8.455
X12.898Y8.609
X12.823Y8.760
X12.759Y8.891
X0.000
Y11.114
X12.971
X13.040Y11.214
X13.194Y11.380
X13.269Y11.455
X13.344Y11.530
X13.502Y11.677
X13.678Y11.802
X13.870Y11.901
X14.053Y11.990
X14.248Y12.056
X14.450Y12.095
X14.654Y12.108
X15.180
X15.383Y12.095
X15.585Y12.056
X15.780Y11.990
X15.964Y11.901
X16.143Y11.809
X16.310Y11.695
X16.460Y11.561
X16.575Y11.680
X16.651Y11.755
X16.726Y11.830
X16.881Y11.976
X17.059Y12.101
X17.253Y12.202
X17.460Y12.276
X17.673Y12.319
X17.885Y12.334
X18.411
X18.615Y12.321
X18.817Y12.281
X19.012Y12.216
X19.195Y12.126
X19.387Y12.027
X19.563Y11.902
X19.721Y11.755
X19.796Y11.680
X19.871Y11.605
X20.011Y11.456
X20.132Y11.289
X20.227Y11.114
G0Z5.080
G0X0.000
G1Z-5.000F300.0
G1X12.971F1000.0
X13.040Y11.214
X13.194Y11.380
X13.269Y11.455
X13.344Y11.530
X13.502Y11.677
X13.678Y11.802
X13.870Y11.901
X14.053Y11.990
X14.248Y12.056
X14.450Y12.095
X14.654Y12.108
X15.180
X15.383Y12.095
X15.585Y12.056
X15.780Y11.990
X15.964Y11.901
X16.143Y11.809
X16.310Y11.695
X16.460Y11.561
X16.575Y11.680
X16.651Y11.755
X16.726Y11.830
X16.881Y11.976
X17.059Y12.101
X17.253Y12.202
X17.460Y12.276
X17.673Y12.319
X17.885Y12.334
X18.411
X18.615Y12.321
X18.817Y12.281
X19.012Y12.216
X19.195Y12.126
X19.387Y12.027
X19.563Y11.902
X19.721Y11.755
X19.796Y11.680
X19.871Y11.605
X20.011Y11.456
X20.132Y11.289
X20.227Y11.114
G0Z5.080
G0X45.530Y0.001
G1Z-5.000F300.0
G1X16.678F1000.0
X16.727Y0.171
X16.757Y0.348
X16.767Y0.526
Y0.902
X16.754Y1.105
X16.715Y1.307
X16.649Y1.502
X16.560Y1.686
X16.461Y1.877
X16.336Y2.054
X16.189Y2.212
X16.177Y2.224
X43.613
X43.587Y2.374
X43.576Y2.555
Y2.705
X43.587Y2.886
X43.618Y3.065
X43.669Y3.239
X43.709Y3.430
X43.773Y3.615
X43.859Y3.790
X44.027Y4.086
Y4.208
X44.038Y4.389
X44.048Y4.446
X16.479
X16.635Y4.557
X16.790Y4.702
X16.865Y4.777
X16.941Y4.852
X17.016Y4.928
X17.181Y5.108
X17.318Y5.314
X17.421Y5.539
X17.488Y5.774
X17.542Y5.829
X17.687Y5.985
X17.813Y6.162
X17.914Y6.357
X17.987Y6.563
X18.009Y6.669
X44.931
X45.064Y6.792
X45.241Y6.917
X45.432Y7.016
X45.615Y7.106
X45.810Y7.171
X46.012Y7.210
X46.216Y7.224
X46.592
X46.795Y7.210
X46.997Y7.171
X47.192Y7.106
X47.376Y7.016
X47.567Y6.917
X47.744Y6.792
X47.876Y6.669
X50.235
G0Z5.080
G0X49.944Y8.891
G1Z-5.000F300.0
G1X49.883F1000.0
G0Z5.080
G0X63.460Y0.001
G1Z-5.000F300.0
G1X57.948F1000.0
X57.967Y0.043
X58.060Y0.235
X58.126Y0.439
X58.194Y0.637
X58.235Y0.843
X58.249Y1.052
Y1.146
X58.272Y1.170
X58.347Y1.245
X58.422Y1.320
X58.497Y1.396
X58.651Y1.561
X58.780Y1.749
X58.882Y1.953
X58.952Y2.167
X58.972Y2.224
X63.500
Y4.446
X58.706
X58.651Y4.526
X58.497Y4.691
X58.422Y4.767
X58.347Y4.842
X58.190Y4.989
X58.013Y5.114
X57.821Y5.213
X57.638Y5.302
X57.443Y5.367
X57.241Y5.407
X57.037Y5.420
X56.521
Y5.937
X56.508Y6.140
X56.468Y6.342
X56.403Y6.537
X56.339Y6.669
X63.500
Y8.891
X54.642
Y9.093
X54.628Y9.302
X54.587Y9.508
X54.519Y9.706
X54.453Y9.910
X54.360Y10.102
X54.260Y10.294
X54.136Y10.471
X53.988Y10.628
X53.831Y10.775
X53.654Y10.900
X53.463Y10.999
X53.313Y11.074
X53.232Y11.114
X63.500
Y13.336
X52.686
X52.678Y13.482
X52.647Y13.661
X52.596Y13.835
X52.555Y14.026
X52.492Y14.211
X52.406Y14.386
X52.307Y14.577
X52.182Y14.754
X52.035Y14.912
X51.826Y15.098
X51.736Y15.248
X51.629Y15.387
X51.509Y15.513
X51.463Y15.559
X63.500
Y17.781
X50.438
X50.381Y17.842
X50.224Y17.989
X50.047Y18.114
X49.856Y18.213
X49.705Y18.289
X49.522Y18.378
X49.327Y18.443
X49.125Y18.483
X48.921Y18.496
X48.621
X48.417Y18.483
X48.215Y18.443
X48.020Y18.378
X47.837Y18.289
X47.686Y18.213
X47.478Y18.104
X47.286Y17.962
X47.116Y17.792
X47.108Y17.781
G0Z5.080
G0X47.735Y8.891
G1Z-5.000F300.0
G1X24.847F1000.0
X24.827Y8.837
X24.726Y8.642
X24.601Y8.465
X24.455Y8.309
X24.380Y8.234
X24.305Y8.159
X24.230Y8.084
X24.072Y7.937
X23.896Y7.812
X23.704Y7.713
X23.521Y7.623
X23.326Y7.558
X23.124Y7.519
X22.920Y7.505
X22.469
X22.266Y7.519
X22.064Y7.558
X21.869Y7.623
X21.685Y7.713
X21.535Y7.788
X21.344Y7.887
X21.167Y8.012
X21.009Y8.159
X20.934Y8.234
X20.859Y8.309
X20.712Y8.467
X20.587Y8.644
X20.488Y8.835
X20.459Y8.891
X20.080
G0Z5.080
G0X24.695Y11.114
G1Z-5.000F300.0
G1X24.663Y11.177F1000.0
X24.534Y11.364
X24.380Y11.530
X24.305Y11.605
X24.230Y11.680
X24.072Y11.827
X23.896Y11.952
X23.704Y12.051
X23.529Y12.137
X23.344Y12.201
X23.153Y12.241
X22.979Y12.292
X22.800Y12.323
X22.620Y12.334
X22.169
X21.965Y12.321
X21.763Y12.281
X21.568Y12.216
X21.385Y12.126
X21.193Y12.027
X21.016Y11.902
X20.859Y11.755
X20.784Y11.680
X20.637Y11.523
X20.512Y11.346
X20.413Y11.155
X20.394Y11.114
X20.227
X20.394
G0Z5.080
G0X47.735Y8.891
G1Z-5.000F300.0
G1X47.686Y8.915F1000.0
X47.495Y9.014
X47.318Y9.139
X47.161Y9.286
X47.085Y9.361
X47.010Y9.436
X46.935Y9.512
X46.860Y9.587
X46.785Y9.662
X46.669Y9.782
X46.566Y9.915
X46.478Y10.057
X46.357Y10.231
X46.260Y10.422
X46.188Y10.625
X46.146Y10.836
X46.131Y11.047
Y11.114
X24.695
G0Z5.080
G0X0.000
G1Z-5.000F300.0
G1Y13.336F1000.0
X46.623
X46.596Y13.468
X46.582Y13.677
Y14.128
X46.596Y14.337
X46.638Y14.543
X46.706Y14.741
X46.765Y14.927
X46.847Y15.105
X46.789Y15.222
X46.700Y15.406
X46.649Y15.559
X0.000
Y17.781
X47.108
G0Z5.080
G0X0.000Y20.004
G1Z-5.000F300.0
G1X63.500F1000.0
Y22.226
X0.000
Y24.449
X63.500
Y26.671
X0.000
Y28.894
X63.500
Y31.116
X0.000
Y33.339
X63.500
Y35.561
X0.000
Y37.784
X63.500
Y40.006
X0.000
Y42.229
X63.500
Y44.451
X0.000
Y46.674
X63.500
Y48.896
X0.000
Y51.119
X63.500
Y53.341
X0.000
Y55.564
X63.500
Y57.786
X0.000
Y60.009
X63.500
Y62.231
X0.000
Y64.454
X63.500
Y66.676
X0.000
Y68.899
X63.500
Y71.121
X0.000
Y73.344
X63.500
Y75.566
X45.992
X46.069Y75.676
X46.169Y75.867
X46.258Y76.050
X46.323Y76.245
X46.363Y76.447
X46.376Y76.651
Y77.027
X46.363Y77.230
X46.323Y77.432
X46.258Y77.627
X46.179Y77.789
X49.740
G0Z5.080
G0X35.393Y75.566
G1Z-5.000F300.0
G1X0.000F1000.0
Y77.789
X37.152
X37.157Y77.794
X37.341Y77.927
X37.541Y78.031
X37.692Y78.106
X37.956Y78.226
X37.993Y78.261
X38.150Y78.408
X38.327Y78.533
X38.518Y78.632
X38.702Y78.722
X38.897Y78.787
X39.099Y78.826
X39.302Y78.840
X39.550
X39.345Y79.023
X39.270Y79.099
X39.195Y79.174
X39.120Y79.249
X39.045Y79.324
X38.899Y79.479
X38.744Y79.625
X38.669Y79.700
X38.594Y79.775
X38.519Y79.850
X38.372Y80.008
X38.369Y80.011
X0.000
Y82.234
X37.967
X37.996Y82.318
X38.097Y82.512
X38.223Y82.690
X38.368Y82.845
X38.443Y82.920
X38.519Y82.996
X38.683Y83.148
X38.870Y83.278
X39.075Y83.380
X39.291Y83.451
X39.512Y83.490
X39.816Y83.601
X40.014Y83.669
X40.221Y83.710
X40.430Y83.724
X40.732
X40.684Y83.893
X40.655Y84.066
X40.646Y84.241
Y84.456
X0.000
Y86.678
X41.913
X42.067Y86.756
X42.274Y86.827
X42.486Y86.868
X42.506Y86.904
X42.537Y86.970
X42.351Y87.139
X42.276Y87.214
X42.201Y87.290
X42.126Y87.365
X42.051Y87.440
X41.904Y87.597
X41.779Y87.774
X41.679Y87.966
X41.590Y88.149
X41.525Y88.344
X41.485Y88.546
X41.472Y88.750
Y88.899
X0.040
G0Z5.080
G0X53.805Y77.789
G1Z-5.000F300.0
G1X63.500F1000.0
Y80.011
X54.449
X54.436Y80.072
X54.368Y80.270
X54.293Y80.496
X54.266Y80.591
X54.247Y80.807
X54.198Y81.020
X54.120Y81.225
X54.015Y81.415
X53.909Y81.643
X53.809Y81.835
X53.685Y82.011
X53.538Y82.169
X53.473Y82.234
X63.500
Y84.456
X51.631
X51.636Y84.541
Y84.992
X51.622Y85.201
X51.581Y85.408
X51.513Y85.606
X51.447Y85.809
X51.354Y86.002
X51.335Y86.042
Y86.345
X51.322Y86.549
X51.297Y86.678
X63.500
Y88.842
X63.496Y88.896
X63.460Y88.899
X50.433
G0Z5.080
G0X49.255Y82.234
G1Z-5.000F300.0
G1X50.382F1000.0
G0Z5.080
G0X10.437Y0.000
G1Z-5.000F300.0
G1X10.418Y0.043F1000.0
X10.343Y0.193
X10.315Y0.245
X10.263Y0.273
G2X9.737Y0.644I0.634J1.455
G1X9.662Y0.719
X9.587Y0.794
X9.512Y0.870
G2X9.008Y2.029I1.084J1.159
G1Y2.555
G2X9.355Y3.545I1.588J0.000
G2X9.662Y3.940I1.391J-0.765
G2X10.057Y4.247I1.159J-1.084
G1X10.065Y4.253
G2X10.488Y4.917I1.508J-0.496
G1X10.564Y4.992
X10.639Y5.067
X10.714Y5.142
G2X11.873Y5.645I1.159J-1.084
G1X12.475
G2X13.288Y5.421I0.000J-1.588
G1X13.274Y5.453
G2X13.093Y5.948I1.380J0.784
G2X12.814Y6.526I1.260J0.965
G2X12.691Y7.139I1.464J0.613
G1Y7.440
G2X12.814Y8.053I1.588J0.000
G1X12.973Y8.449
X12.975Y8.455
X12.898Y8.609
X12.823Y8.760
G2X12.615Y9.544I1.380J0.784
G1Y9.995
G2X12.739Y10.608I1.588J0.000
G2X13.194Y11.380I1.539J-0.388
G1X13.269Y11.455
X13.344Y11.530
G2X13.870Y11.901I1.159J-1.084
G2X14.654Y12.108I0.784J-1.380
G1X15.180
G2X15.964Y11.901I0.000J-1.588
G2X16.460Y11.561I-0.634J-1.455
G1X16.575Y11.680
X16.651Y11.755
X16.726Y11.830
G2X17.885Y12.334I1.159J-1.084
G1X18.411
G2X19.195Y12.126I0.000J-1.588
G2X19.721Y11.755I-0.634J-1.455
G1X19.796Y11.680
X19.871Y11.605
G2X20.303Y10.918I-1.084J-1.159
G1X20.413Y11.155
G2X20.784Y11.680I1.455J-0.634
G1X20.859Y11.755
G2X21.385Y12.126I1.159J-1.084
G2X22.169Y12.334I0.784J-1.380
G1X22.620
G2X23.153Y12.241I0.000J-1.588
G2X23.704Y12.051I-0.233J-1.570
G2X24.230Y11.680I-0.634J-1.455
G1X24.305Y11.605
X24.380Y11.530
G2X24.835Y10.758I-1.084J-1.159
G2X24.959Y10.145I-1.464J-0.613
G1Y9.469
G2X24.455Y8.309I-1.588J0.000
G1X24.380Y8.234
X24.305Y8.159
X24.230Y8.084
G2X23.704Y7.713I-1.159J1.084
G2X22.920Y7.505I-0.784J1.380
G1X22.469
G2X21.685Y7.713I0.000J1.588
G1X21.535Y7.788
G2X21.009Y8.159I0.634J1.455
G1X20.934Y8.234
X20.859Y8.309
G2X20.488Y8.835I1.084J1.159
G1X20.413Y8.985
X20.277Y9.297
X20.167Y9.060
G2X19.796Y8.535I-1.455J0.634
G2X19.270Y8.163I-1.159J1.084
G2X18.486Y7.956I-0.784J1.380
G1X17.960
X17.958Y7.956
G2X18.045Y7.440I-1.501J-0.517
G1Y6.989
G2X17.542Y5.829I-1.588J0.000
G1X17.488Y5.774
G2X17.016Y4.928I-1.556J0.313
G1X16.941Y4.852
X16.865Y4.777
X16.790Y4.702
G2X15.631Y4.199I-1.159J1.084
G1X15.030
G2X14.403Y4.328I0.000J1.588
G2X14.613Y3.854I-1.327J-0.871
G1X14.765Y3.469
X14.801Y3.375
X14.836Y3.339
G2X15.208Y2.813I-1.084J-1.159
G1X15.588Y2.658
G2X16.114Y2.287I-0.634J-1.455
G1X16.189Y2.212
G2X16.560Y1.686I-1.084J-1.159
G2X16.767Y0.902I-1.380J-0.784
G1Y0.526
G2X16.678Y0.000I-1.588J0.000
G1X45.530
Y0.188
X45.302Y0.264
X44.906Y0.423
G2X44.380Y0.794I0.634J1.455
G1X44.305Y0.870
X44.230Y0.945
G2X43.859Y1.470I1.084J1.159
G2X43.669Y2.022I1.380J0.784
G2X43.576Y2.555I1.495J0.533
G1Y2.705
G2X43.669Y3.239I1.588J0.000
G2X43.859Y3.790I1.570J-0.233
G1X44.027Y4.086
Y4.208
G2X44.120Y4.742I1.588J0.000
G2X44.253Y5.183I1.570J-0.233
G1Y5.260
G2X44.460Y6.044I1.588J0.000
G2X44.831Y6.570I1.455J-0.634
G1X44.906Y6.645
G2X45.432Y7.016I1.159J-1.084
G2X46.216Y7.224I0.784J-1.380
G1X46.592
G2X47.376Y7.016I0.000J-1.588
G2X47.901Y6.645I-0.634J-1.455
G1X47.977Y6.570
X48.052Y6.495
X48.127Y6.420
G2X48.580Y5.657I-1.084J-1.159
G1X48.584Y5.649
X48.692Y5.496
X48.724Y5.481
X49.039Y5.664
G2X49.514Y5.841I0.784J-1.380
G2X49.941Y6.115I1.060J-1.181
G1X50.337Y6.274
X50.552Y6.346
X50.467Y6.430
X50.392Y6.506
X50.317Y6.581
G2X49.814Y7.740I1.084J1.159
G1Y8.266
G2X49.958Y8.927I1.588J0.000
G1X49.931Y8.915
G2X49.380Y8.725I-0.784J1.380
G2X48.846Y8.633I-0.533J1.495
G1X48.696
G2X48.083Y8.756I0.000J1.588
G1X47.686Y8.915
G2X47.161Y9.286I0.634J1.455
G1X47.085Y9.361
X47.010Y9.436
X46.935Y9.512
X46.860Y9.587
X46.785Y9.662
G2X46.478Y10.057I1.084J1.159
G2X46.131Y11.047I1.241J0.990
G1Y11.723
G2X46.339Y12.507I1.588J0.000
G2X46.710Y13.033I1.455J-0.634
G1X46.713Y13.036
X46.706Y13.064
G2X46.582Y13.677I1.464J0.613
G1Y14.128
G2X46.706Y14.741I1.587J0.000
G1X46.847Y15.105
X46.789Y15.222
G2X46.582Y16.007I1.380J0.784
G1Y16.457
G2X46.789Y17.242I1.587J0.000
G1X46.865Y17.392
G2X47.686Y18.213I1.455J-0.634
G1X47.837Y18.289
G2X48.621Y18.496I0.784J-1.380
G1X48.921
G2X49.705Y18.289I0.000J-1.588
G1X49.856Y18.213
G2X50.381Y17.842I-0.634J-1.455
G2X50.753Y17.317I-1.084J-1.159
G1X50.912Y16.920
G2X51.035Y16.307I-1.464J-0.613
G1Y16.082
X51.033Y15.999
X51.064Y15.945
X51.118Y15.873
X51.358Y15.663
X51.433Y15.588
X51.509Y15.513
G2X51.826Y15.098I-1.084J-1.159
G1X52.035Y14.912
G2X52.406Y14.386I-1.084J-1.159
G2X52.596Y13.835I-1.380J-0.784
G2X52.688Y13.301I-1.495J-0.533
G1Y12.700
G2X52.596Y12.167I-1.587J0.000
G2X52.406Y11.615I-1.570J0.233
G1X52.207Y11.279
X52.303Y11.282
X52.528
G2X53.313Y11.074I0.000J-1.588
G1X53.463Y10.999
G2X53.988Y10.628I-0.634J-1.455
G2X54.360Y10.102I-1.084J-1.159
G1X54.519Y9.706
G2X54.642Y9.093I-1.464J-0.613
G1Y8.717
G2X54.487Y8.033I-1.587J0.000
G1X54.870Y7.927
X55.266Y7.768
G2X55.792Y7.397I-0.634J-1.455
G1X55.867Y7.322
X55.942Y7.246
G2X56.313Y6.721I-1.084J-1.159
G2X56.521Y5.937I-1.380J-0.784
G1Y5.420
X57.037
G2X57.821Y5.213I0.000J-1.588
G2X58.347Y4.842I-0.634J-1.455
G1X58.422Y4.767
X58.497Y4.691
G2X58.952Y3.920I-1.084J-1.159
G2X59.076Y3.307I-1.464J-0.613
G1Y2.780
G2X58.952Y2.167I-1.588J0.000
G2X58.497Y1.396I-1.539J0.388
G1X58.422Y1.320
X58.347Y1.245
X58.272Y1.170
X58.249Y1.146
Y1.052
G2X58.126Y0.439I-1.588J0.000
G1X57.967Y0.043
X57.947Y0.000
X63.442
X63.496Y0.004
X63.500Y0.058
Y88.842
X63.496Y88.896
X63.442Y88.900
X50.433
X50.452Y88.857
X50.611Y88.461
G2X50.734Y87.848I-1.464J-0.613
G1Y87.754
G2X51.053Y87.279I-1.137J-1.108
G1X51.128Y87.129
G2X51.335Y86.345I-1.380J-0.784
G1Y86.042
X51.354Y86.002
X51.513Y85.606
G2X51.636Y84.992I-1.464J-0.613
G1Y84.541
G2X51.429Y83.757I-1.588J0.000
G1X51.354Y83.607
G2X50.983Y83.081I-1.455J0.634
G2X50.588Y82.774I-1.159J1.084
G1X50.231Y82.560
X49.835Y82.401
G2X49.230Y82.278I-0.613J1.464
G1X49.260Y82.225
G2X49.602Y81.356I-1.241J-0.990
G1X49.677Y80.990
G2X49.871Y81.568I1.574J-0.206
G2X50.242Y82.094I1.455J-0.634
G1X50.317Y82.169
X50.392Y82.244
G2X50.918Y82.615I1.159J-1.084
G2X51.702Y82.822I0.784J-1.380
G1X52.153
G2X52.937Y82.615I0.000J-1.588
G2X53.462Y82.244I-0.634J-1.455
G1X53.538Y82.169
G2X53.909Y81.643I-1.084J-1.159
G1X54.015Y81.415
G2X54.266Y80.591I-1.337J-0.856
G1X54.293Y80.496
X54.368Y80.270
G2X54.492Y79.657I-1.464J-0.613
G1Y79.431
G2X54.399Y78.898I-1.588J0.000
G2X54.070Y78.141I-1.570J0.233
G2X53.683Y77.676I-1.391J0.765
G1X53.538Y77.520
X53.462Y77.445
X53.387Y77.370
G2X52.862Y76.999I-1.159J1.084
G2X52.078Y76.792I-0.784J1.380
G1X51.401
G2X50.411Y77.138I0.000J1.587
G2X50.016Y77.445I0.765J1.391
G2X49.645Y77.971I1.084J1.159
G1X49.486Y78.367
G2X49.363Y78.961I1.464J0.613
G1X49.104Y78.648
X49.029Y78.572
X48.954Y78.497
X48.878Y78.422
G2X48.107Y77.967I-1.159J1.084
G2X47.493Y77.844I-0.613J1.464
G1X46.291
X46.151Y77.850
X46.169Y77.811
G2X46.376Y77.027I-1.380J-0.784
G1Y76.651
G2X46.169Y75.867I-1.588J0.000
G2X45.797Y75.341I-1.455J0.634
G1X45.722Y75.266
G2X45.197Y74.895I-1.159J1.084
G2X44.412Y74.688I-0.784J1.380
G1X44.037
G2X43.453Y74.799I0.000J1.587
G2X42.942Y74.444I-1.144J1.100
G1X42.792Y74.369
G2X42.241Y74.179I-0.784J1.380
G2X41.707Y74.086I-0.533J1.495
G1X41.557
G2X40.943Y74.210I0.000J1.588
G1X40.547Y74.369
X40.262Y74.530
X40.245Y74.523
X40.236Y74.514
X40.161Y74.439
X40.086Y74.364
G2X38.927Y73.861I-1.159J1.084
G1X38.699
X38.659Y73.843
G2X37.875Y73.636I-0.784J1.380
G1X37.799
G2X37.015Y73.843I0.000J1.588
G1X36.655Y74.061
G2X35.888Y74.514I0.393J1.538
G2X35.385Y75.674I1.084J1.159
G1Y76.050
G2X36.973Y77.637I1.588J0.000
G1X36.995
G2X37.541Y78.031I1.180J-1.061
G1X37.692Y78.106
X37.956Y78.226
X37.993Y78.261
G2X38.518Y78.632I1.159J-1.084
G2X39.302Y78.840I0.784J-1.380
G1X39.550
X39.345Y79.023
X39.270Y79.099
X39.195Y79.174
X39.120Y79.249
X39.045Y79.324
X38.899Y79.479
X38.744Y79.625
X38.669Y79.700
X38.594Y79.775
X38.519Y79.850
G2X38.147Y80.376I1.084J1.159
G1X38.072Y80.526
G2X37.865Y81.310I1.380J0.784
G1Y81.686
G2X38.368Y82.845I1.588J0.000
G1X38.443Y82.920
X38.519Y82.996
G2X39.512Y83.490I1.159J-1.084
G1X39.816Y83.601
G2X40.430Y83.724I0.613J-1.464
G1X40.732
G2X40.646Y84.241I1.501J0.517
G1Y84.767
G2X40.853Y85.551I1.587J0.000
G1X40.928Y85.701
G2X41.299Y86.227I1.455J-0.634
G2X41.694Y86.534I1.159J-1.084
G2X42.486Y86.868I0.990J-1.241
G1X42.506Y86.904
X42.537Y86.970
X42.351Y87.139
X42.276Y87.214
X42.201Y87.290
X42.126Y87.365
X42.051Y87.440
G2X41.679Y87.966I1.084J1.159
G2X41.472Y88.750I1.380J0.784
G1Y88.900
X0.058
X0.004Y88.896
X0.000Y88.842
Y0.058
X0.004Y0.004
X0.058Y0.000
X10.437
G0Z5.080
G0X9.989Y0.001
G1Z-6.000F300.0
G1X0.040F1000.0
X0.004Y0.004
X0.000Y0.058
Y2.224
X8.708
Y2.705
X8.722Y2.918
X8.766Y3.131
X8.839Y3.337
X8.940Y3.532
X9.065Y3.709
X9.211Y3.865
X9.286Y3.940
X9.361Y4.015
X9.610Y4.231
Y4.355
X9.445Y4.446
X0.000
Y6.669
X8.407
Y6.688
X8.421Y6.901
X8.465Y7.113
X8.538Y7.320
X8.639Y7.515
X8.765Y7.692
X8.910Y7.848
X8.985Y7.923
X9.061Y7.998
X9.136Y8.073
X9.291Y8.219
X9.469Y8.344
X9.663Y8.445
X9.870Y8.518
X10.083Y8.562
X10.295Y8.576
X10.821
X11.025Y8.563
X11.227Y8.524
X11.422Y8.458
X11.605Y8.369
X11.797Y8.270
X11.974Y8.145
X12.131Y7.998
X12.206Y7.923
X12.346Y7.774
X12.465Y7.609
X12.481Y7.812
X12.522Y8.011
X12.588Y8.203
X12.692Y8.492
X12.672Y8.534
X12.587Y8.709
X12.524Y8.891
X9.929
X10.030Y9.001
X10.160Y9.188
X10.261Y9.392
X10.332Y9.607
X10.400Y9.805
X10.441Y10.011
X10.455Y10.220
Y10.446
X10.442Y10.649
X10.402Y10.851
X10.337Y11.046
X10.304Y11.114
X12.290
X12.221Y11.240
X12.132Y11.423
X12.067Y11.618
X12.027Y11.820
X12.014Y12.024
Y12.249
X12.029Y12.462
X12.072Y12.674
X12.145Y12.881
X12.246Y13.076
X12.372Y13.253
X12.450Y13.336
X8.897
X8.825Y13.409
X8.704Y13.524
X8.572Y13.627
X8.430Y13.715
X8.235Y13.848
X8.077Y13.981
X7.904Y14.091
X7.733Y14.210
X7.547Y14.306
X7.355Y14.399
X7.151Y14.465
X6.953Y14.533
X6.747Y14.574
X6.538Y14.588
X6.463
X6.254Y14.574
X6.047Y14.533
X5.849Y14.465
X5.635Y14.394
X5.431Y14.293
X5.243Y14.163
X5.078Y14.010
X5.003Y13.935
X4.856Y13.777
X4.731Y13.600
X4.631Y13.409
X4.596Y13.336
G0Z5.080
G0X0.000Y8.891
G1Z-6.000F300.0
G1X6.526F1000.0
X6.506Y8.910
X6.430Y8.985
X6.355Y9.061
X6.209Y9.217
X6.084Y9.395
X5.983Y9.589
X5.911Y9.794
X5.867Y10.003
X5.818Y10.049
X5.661Y10.152
X5.517Y10.274
X5.346Y10.389
X5.190Y10.525
X5.053Y10.681
X4.939Y10.852
X4.819Y10.994
X4.739Y11.114
X0.000
Y13.336
X4.596
G0Z5.080
G0X45.380Y0.001
G1Z-6.000F300.0
G1X16.948F1000.0
X16.982Y0.187
X16.993Y0.376
Y0.977
X16.980Y1.181
X16.940Y1.382
X16.875Y1.578
X16.786Y1.761
X16.686Y1.952
X16.562Y2.129
X16.473Y2.224
X43.204
X43.115Y2.358
X43.032Y2.522
X42.943Y2.706
X42.878Y2.901
X42.838Y3.103
X42.825Y3.307
Y3.532
X42.838Y3.736
X42.878Y3.937
X42.943Y4.133
X43.032Y4.316
X43.100Y4.446
X16.978
X17.091Y4.552
X17.304Y4.796
X17.617Y4.932
X17.809Y5.031
X17.985Y5.156
X18.143Y5.303
X18.218Y5.378
X18.334Y5.499
X18.437Y5.631
X18.525Y5.773
X18.646Y5.947
X18.743Y6.138
X18.815Y6.342
X18.857Y6.552
X18.865Y6.669
X44.487
X44.606Y6.796
X44.726Y6.911
X44.858Y7.014
X45.000Y7.102
X45.186Y7.230
X45.389Y7.331
X45.603Y7.401
X45.801Y7.469
X46.007Y7.510
X46.216Y7.524
X46.742
X46.946Y7.511
X47.148Y7.472
X47.343Y7.406
X47.526Y7.317
X47.717Y7.218
X47.894Y7.093
X48.052Y6.946
X48.127Y6.871
X48.202Y6.796
X48.320Y6.669
X49.260
G0Z5.080
G0X63.460Y0.001
G1Z-6.000F300.0
G1X58.286F1000.0
X58.367Y0.177
X58.426Y0.364
X58.463Y0.557
X58.474Y0.751
Y0.999
X58.572Y1.095
X58.648Y1.170
X58.723Y1.245
X58.798Y1.320
X58.943Y1.476
X59.069Y1.653
X59.170Y1.848
X59.243Y2.055
X59.278Y2.224
X63.500
Y4.446
X58.953
X58.944Y4.466
X58.844Y4.658
X58.720Y4.834
X58.572Y4.992
X58.415Y5.139
X58.238Y5.264
X58.047Y5.363
X57.897Y5.438
X57.713Y5.527
X57.518Y5.593
X57.316Y5.632
X57.112Y5.645
X56.896
Y5.786
X56.883Y5.995
X56.841Y6.202
X56.773Y6.400
X56.707Y6.603
X56.675Y6.669
X63.500
Y8.891
X54.943
Y9.093
X54.929Y9.302
X54.887Y9.508
X54.819Y9.706
X54.753Y9.910
X54.660Y10.102
X54.585Y10.253
X54.486Y10.444
X54.361Y10.621
X54.214Y10.778
X54.203Y10.790
X54.071Y10.983
X53.951Y11.114
X63.500
Y13.336
X52.914
Y13.451
X52.903Y13.632
X52.872Y13.811
X52.821Y13.985
X52.777Y14.188
X52.707Y14.385
X52.610Y14.572
X52.492Y14.742
X52.404Y14.884
X52.301Y15.017
X52.185Y15.137
X52.110Y15.212
X52.027Y15.294
X51.928Y15.483
X51.875Y15.559
X63.500
Y17.781
X51.168
X51.130Y17.835
X50.983Y17.993
X50.907Y18.068
X50.832Y18.143
X50.675Y18.290
X50.498Y18.415
X50.307Y18.514
X50.156Y18.589
X49.964Y18.682
X49.760Y18.748
X49.562Y18.816
X49.356Y18.858
X49.147Y18.872
X48.771
X48.562Y18.858
X48.356Y18.816
X48.158Y18.748
X47.954Y18.682
X47.761Y18.589
X47.611Y18.514
X47.420Y18.415
X47.243Y18.290
X47.085Y18.143
X47.010Y18.068
X46.935Y17.993
X46.860Y17.917
X46.733Y17.781
G0Z5.080
G0X25.157Y8.891
G1Z-6.000F300.0
G1X47.286F1000.0
X47.194Y8.939
X47.018Y9.064
X46.860Y9.211
X46.785Y9.286
X46.710Y9.361
X46.635Y9.436
X46.559Y9.512
X46.407Y9.675
X46.279Y9.861
X46.178Y10.062
X46.107Y10.274
X46.024Y10.446
X45.962Y10.627
X45.923Y10.814
X45.875Y10.977
X45.850Y11.114
X24.829
X24.762Y11.210
X24.751Y11.230
X24.676Y11.380
X24.577Y11.571
X24.452Y11.748
X24.305Y11.906
X24.148Y12.053
X23.971Y12.178
X23.779Y12.277
X23.629Y12.352
X23.479Y12.427
X23.295Y12.516
X23.100Y12.582
X22.898Y12.621
X22.695Y12.634
X22.093
X21.890Y12.621
X21.688Y12.582
X21.493Y12.516
X21.309Y12.427
X21.118Y12.328
X20.941Y12.203
X20.784Y12.056
X20.733Y12.006
X20.440Y12.033
X19.956
X19.796Y12.206
X19.721Y12.281
X19.646Y12.357
X19.571Y12.432
X19.415Y12.577
X19.238Y12.703
X19.043Y12.804
X18.837Y12.877
X18.624Y12.921
X18.411Y12.935
X17.810
X17.599Y12.921
X17.389Y12.878
X17.185Y12.807
X16.994Y12.709
X16.820Y12.588
X16.626Y12.462
X16.451Y12.308
X16.301Y12.132
X16.039Y12.277
X15.889Y12.352
X15.861Y12.367
X15.827Y12.598
X15.757Y12.825
X15.654Y13.041
X15.521Y13.237
X15.429Y13.336
X46.273
X46.322Y13.396
X46.283Y13.695
X46.157Y13.840
X46.050Y13.999
X45.963Y14.170
X45.874Y14.354
X45.808Y14.549
X45.769Y14.751
X45.756Y14.954
Y15.405
X45.766Y15.559
X0.000
Y17.781
X46.733
G0Z5.080
G0X0.000Y20.004
G1Z-6.000F300.0
G1X14.003F1000.0
X14.049Y19.916
X14.174Y19.739
X14.321Y19.581
X14.479Y19.434
X14.655Y19.309
X14.847Y19.210
X15.030Y19.121
X15.225Y19.056
X15.427Y19.016
X15.631Y19.003
X16.082
X16.294Y19.017
X16.507Y19.061
X16.714Y19.134
X16.908Y19.235
X17.085Y19.361
X17.241Y19.506
X17.316Y19.581
X17.391Y19.656
X17.467Y19.732
X17.612Y19.887
X17.695Y20.004
X63.500
Y22.226
X17.674
X17.588Y22.393
X17.463Y22.569
X17.316Y22.727
X17.159Y22.874
X16.982Y22.999
X16.791Y23.098
X16.607Y23.187
X16.412Y23.253
X16.210Y23.292
X16.007Y23.305
X15.631
X15.427Y23.292
X15.225Y23.253
X15.030Y23.187
X14.847Y23.098
X14.655Y22.999
X14.479Y22.874
X14.321Y22.727
X14.174Y22.569
X14.049Y22.393
X13.963Y22.226
X0.000
G0Z5.080
G0Y24.449
G1Z-6.000F300.0
G1X63.500F1000.0
Y26.671
X0.000
Y28.894
X63.500
Y31.116
X0.000
Y33.339
X63.500
Y35.561
X0.000
Y37.784
X63.500
Y40.006
X0.000
Y42.229
X63.500
Y44.451
X0.000
Y46.674
X63.500
Y48.896
X0.000
Y51.119
X63.500
Y53.341
X0.000
Y55.564
X63.500
Y57.786
X0.000
Y60.009
X63.500
Y62.231
X0.000
Y64.454
X63.500
Y66.676
X0.000
Y68.899
X63.500
Y71.121
X0.000
Y73.344
X34.187
X34.164Y73.389
X34.091Y73.595
X34.047Y73.808
X34.033Y74.021
Y74.547
X34.047Y74.759
X34.091Y74.972
X34.164Y75.179
X34.265Y75.373
X34.390Y75.551
X34.405Y75.566
X0.000
Y77.789
X35.192
X35.212Y77.810
X35.370Y77.957
X35.547Y78.082
X35.738Y78.182
X35.888Y78.257
X36.063Y78.342
X36.248Y78.406
X36.439Y78.447
X36.613Y78.498
X36.792Y78.529
X36.973Y78.539
X37.198
X37.323Y78.534
X37.542Y78.787
X37.617Y78.862
X37.774Y79.009
X37.951Y79.134
X38.143Y79.234
X38.293Y79.309
X38.452Y79.368
X38.615Y79.410
X38.538Y79.468
X38.396Y79.556
X38.263Y79.659
X38.143Y79.775
X38.068Y79.850
X37.993Y79.925
X37.912Y80.011
X0.000
Y82.234
X37.240
X37.241Y82.242
X37.307Y82.437
X37.396Y82.620
X37.495Y82.811
X37.620Y82.988
X37.767Y83.146
X37.916Y83.285
X38.083Y83.406
X38.265Y83.505
X38.458Y83.578
X38.656Y83.626
X38.705Y83.650
X38.845Y83.842
X39.015Y84.014
X39.209Y84.157
X39.420Y84.269
X39.570Y84.344
X39.722Y84.419
X39.821Y84.456
X0.000
Y86.678
X40.777
X40.778Y86.678
X40.877Y86.869
X41.002Y87.046
X41.149Y87.204
X41.224Y87.279
X41.299Y87.354
X41.304Y87.359
X41.187Y87.499
X41.086Y87.652
X41.003Y87.815
X40.928Y87.966
X40.839Y88.149
X40.773Y88.344
X40.734Y88.546
X40.721Y88.750
Y88.899
X0.040
G0Z5.080
G0X39.162Y73.344
G1Z-6.000F300.0
G1X63.500F1000.0
Y75.566
X46.391
X46.469Y75.716
X46.562Y75.909
X46.628Y76.113
X46.696Y76.311
X46.738Y76.517
X46.751Y76.726
Y76.951
X46.724Y77.243
X47.043
X47.287Y77.262
X47.526Y77.318
X47.724Y77.335
X47.919Y77.376
X48.107Y77.441
X48.321Y77.511
X48.523Y77.612
X48.709Y77.740
X48.792Y77.789
X49.116
G0Z5.080
G0X54.248
G1Z-6.000F300.0
G1X63.500F1000.0
Y80.011
X54.934
X54.928Y80.093
X54.886Y80.304
X54.814Y80.507
X54.717Y80.698
X54.596Y80.872
X54.480Y81.054
X54.399Y81.393
X54.359Y81.584
X54.295Y81.769
X54.209Y81.944
X54.110Y82.135
X54.040Y82.234
X63.500
Y84.456
X51.861
X51.861Y84.466
Y85.218
X51.853Y85.379
X51.982Y85.526
X52.092Y85.688
X52.180Y85.861
X52.255Y86.012
X52.345Y86.195
X52.410Y86.390
X52.450Y86.592
X52.455Y86.678
X63.500
Y88.842
X63.496Y88.896
X63.460Y88.899
X51.537
G0Z5.080
G0X9.990Y0.000
G1Z-6.000F300.0
G1X9.662Y0.268F1000.0
X9.587Y0.343
X9.512Y0.419
G2X9.205Y0.813I1.084J1.159
G1X8.990Y1.170
X8.831Y1.566
G2X8.708Y2.179I1.464J0.613
G1Y2.705
G2X9.211Y3.865I1.588J0.000
G1X9.286Y3.940
X9.361Y4.015
X9.610Y4.231
Y4.355
G2X9.136Y4.702I0.686J1.432
G1X9.061Y4.777
X8.985Y4.852
X8.910Y4.928
G2X8.407Y6.087I1.084J1.159
G1Y6.688
G2X8.910Y7.848I1.588J0.000
G1X8.985Y7.923
X9.061Y7.998
X9.136Y8.073
G2X10.295Y8.576I1.159J-1.084
G1X10.821
G2X11.605Y8.369I0.000J-1.588
G2X12.131Y7.998I-0.634J-1.455
G1X12.206Y7.923
X12.465Y7.609
G2X12.588Y8.203I1.587J-0.019
G1X12.692Y8.492
X12.672Y8.534
G2X12.482Y9.085I1.380J0.784
G2X12.390Y9.619I1.495J0.533
G1Y9.844
G2X12.482Y10.378I1.588J0.000
G1X12.522Y10.564
G2X12.354Y10.995I1.381J0.783
G1X12.221Y11.240
G2X12.014Y12.024I1.380J0.784
G1Y12.249
G2X12.517Y13.409I1.588J0.000
G1X12.593Y13.484
X12.668Y13.559
G2X13.827Y14.062I1.159J-1.084
G1X14.053
G2X15.212Y13.559I0.000J-1.588
G1X15.287Y13.484
X15.362Y13.409
G2X15.861Y12.367I-1.084J-1.159
G1X15.889Y12.352
X16.039Y12.277
X16.301Y12.132
G2X16.820Y12.588I1.283J-0.935
G2X17.810Y12.935I0.990J-1.241
G1X18.411
G2X19.571Y12.432I0.000J-1.588
G1X19.646Y12.357
X19.721Y12.281
X19.796Y12.206
X19.956Y12.033
X20.440
X20.733Y12.006
X20.784Y12.056
G2X21.309Y12.427I1.159J-1.084
G2X22.093Y12.634I0.784J-1.380
G1X22.695
G2X23.479Y12.427I0.000J-1.588
G1X23.629Y12.352
X23.779Y12.277
G2X24.305Y11.906I-0.634J-1.455
G2X24.676Y11.380I-1.084J-1.159
G1X24.751Y11.230
X24.762Y11.210
X24.977Y10.854
X25.136Y10.458
G2X25.259Y9.844I-1.464J-0.613
G1Y9.619
G2X25.184Y9.135I-1.588J0.000
G2X24.977Y8.384I-1.587J0.033
G1X24.902Y8.234
G2X24.530Y7.708I-1.455J0.634
G1X24.455Y7.633
G2X23.930Y7.262I-1.159J1.084
G1X23.779Y7.187
G2X22.995Y6.979I-0.784J1.380
G1X22.695
G2X22.161Y7.072I0.000J1.588
G2X21.610Y7.262I0.233J1.570
G1X21.460Y7.337
X21.309Y7.412
X20.960Y7.621
X20.581Y7.520
G2X20.172Y7.262I-1.043J1.197
G1X20.022Y7.187
G2X19.238Y6.979I-0.784J1.380
G1X18.872
Y6.763
G2X18.525Y5.773I-1.588J0.000
G2X18.218Y5.378I-1.391J0.765
G1X18.143Y5.303
G2X17.617Y4.932I-1.159J1.084
G1X17.304Y4.796
X17.091Y4.552
G2X16.565Y4.181I-1.159J1.084
G1X16.169Y4.022
G2X15.556Y3.898I-0.613J1.464
G1X15.105
X14.964Y3.905
X15.066Y3.619
X15.101Y3.528
G2X15.738Y3.113I-0.522J-1.499
G1X15.813Y3.038
X15.888Y2.963
X15.964Y2.888
G2X16.331Y2.371I-1.084J-1.159
G1X16.339Y2.362
X16.415Y2.287
G2X16.786Y1.761I-1.084J-1.159
G2X16.993Y0.977I-1.380J-0.784
G1Y0.376
X16.948Y0.000
X45.380
Y0.038
X45.152Y0.114
X44.756Y0.273
G2X44.230Y0.644I0.634J1.455
G2X43.923Y1.039I1.084J1.159
G1X43.773Y1.264
X43.558Y1.621
X43.483Y1.771
X43.408Y1.921
X43.336Y2.063
G2X43.032Y2.522I1.151J1.093
G2X42.825Y3.307I1.380J0.784
G1Y3.532
G2X43.032Y4.316I1.588J0.000
G2X43.403Y4.842I1.455J-0.634
G1X43.478Y4.917
G2X43.952Y5.264I1.159J-1.084
G1Y5.336
G2X44.159Y6.120I1.588J0.000
G1X44.234Y6.270
G2X44.606Y6.796I1.455J-0.634
G2X45.000Y7.102I1.159J-1.084
G2X45.603Y7.401I0.990J-1.241
G2X46.216Y7.524I0.613J-1.464
G1X46.742
G2X47.526Y7.317I0.000J-1.588
G2X48.052Y6.946I-0.634J-1.455
G1X48.127Y6.871
X48.202Y6.796
G2X48.657Y6.024I-1.084J-1.159
G1X48.700Y5.909
X48.982Y6.027
X49.035Y6.174
G2X49.490Y6.946I1.539J-0.388
G1X49.496Y6.952
G2X49.363Y7.590I1.454J0.637
G1Y8.191
X49.400Y8.535
X48.996Y8.482
X48.546
G2X47.932Y8.606I0.000J1.588
G1X47.536Y8.765
X47.386Y8.840
G2X46.860Y9.211I0.634J1.455
G1X46.785Y9.286
X46.710Y9.361
X46.635Y9.436
X46.559Y9.512
G2X46.107Y10.274I1.084J1.159
G2X45.923Y10.814I1.387J0.773
G2X45.831Y11.315I1.495J0.533
G2X45.756Y11.798I1.512J0.484
G1Y11.873
G2X45.848Y12.407I1.588J0.000
G2X46.038Y12.958I1.570J-0.233
G2X46.322Y13.396I1.455J-0.634
G1X46.283Y13.695
G2X45.963Y14.170I1.136J1.109
G2X45.756Y14.954I1.380J0.784
G1Y15.405
G2X45.963Y16.189I1.588J0.000
G2X46.212Y16.587I1.455J-0.634
G2X46.414Y17.242I1.582J-0.130
G1X46.489Y17.392
G2X46.860Y17.917I1.455J-0.634
G1X46.935Y17.993
X47.010Y18.068
X47.085Y18.143
G2X47.611Y18.514I1.159J-1.084
G1X47.761Y18.589
X48.158Y18.748
G2X48.771Y18.872I0.613J-1.464
G1X49.147
G2X49.760Y18.748I0.000J-1.588
G1X50.156Y18.589
X50.307Y18.514
G2X50.832Y18.143I-0.634J-1.455
G1X50.907Y18.068
X50.983Y17.993
G2X51.354Y17.467I-1.084J-1.159
G2X51.561Y16.683I-1.380J-0.784
G1Y16.307
X51.537Y16.034
X51.651Y15.822
X51.659Y15.813
G2X52.027Y15.294I-1.084J-1.159
G1X52.110Y15.212
X52.185Y15.137
G2X52.492Y14.742I-1.084J-1.159
G2X52.821Y13.985I-1.241J-0.990
G2X52.914Y13.451I-1.495J-0.533
G1Y13.151
G2X52.838Y12.668I-1.588J0.000
G1Y12.550
G2X52.715Y11.936I-1.588J0.000
G1X52.695Y11.864
G2X53.237Y11.676I-0.242J-1.569
G2X53.763Y11.304I-0.634J-1.455
G1X53.838Y11.229
X53.913Y11.154
G2X54.203Y10.790I-1.084J-1.159
G1X54.214Y10.778
G2X54.585Y10.253I-1.084J-1.159
G1X54.660Y10.102
X54.819Y9.706
G2X54.943Y9.093I-1.464J-0.613
G1Y8.830
X55.116Y8.745
X55.266Y8.670
G2X55.792Y8.299I-0.634J-1.455
G2X56.163Y7.773I-1.084J-1.159
G1X56.238Y7.623
G2X56.419Y7.127I-1.380J-0.784
G1X56.614Y6.796
X56.773Y6.400
G2X56.896Y5.786I-1.464J-0.613
G1Y5.645
X57.112
G2X57.897Y5.438I0.000J-1.588
G1X58.047Y5.363
G2X58.572Y4.992I-0.634J-1.455
G2X58.944Y4.466I-1.084J-1.159
G1X59.103Y4.070
G2X59.226Y3.490I-1.464J-0.613
G2X59.301Y3.006I-1.512J-0.484
G1Y2.480
G2X58.798Y1.320I-1.587J0.000
G1X58.723Y1.245
X58.648Y1.170
X58.572Y1.095
X58.474Y0.999
Y0.751
G2X58.285Y0.000I-1.587J0.000
G1X63.442
X63.496Y0.004
X63.500Y0.058
Y88.842
X63.496Y88.896
X63.442Y88.900
X51.536
X51.659Y88.782
X51.734Y88.707
X51.809Y88.632
X51.884Y88.557
G2X52.255Y88.031I-1.084J-1.159
G2X52.463Y87.247I-1.380J-0.784
G1Y86.796
G2X52.255Y86.012I-1.588J0.000
G1X52.180Y85.861
G2X51.853Y85.379I-1.455J0.634
G1X51.861Y85.218
Y84.466
G2X51.738Y83.853I-1.587J0.000
G1X51.579Y83.457
X51.419Y83.173
X51.702Y83.198
X52.303
G2X53.087Y82.991I0.000J-1.588
G1X53.237Y82.916
G2X53.763Y82.545I-0.634J-1.455
G1X53.838Y82.470
G2X54.209Y81.944I-1.084J-1.159
G2X54.399Y81.393I-1.380J-0.784
G1X54.480Y81.054
X54.596Y80.872
G2X54.943Y79.882I-1.241J-0.990
G1Y79.206
G2X54.439Y78.046I-1.588J0.000
G1X54.428Y78.035
G2X54.139Y77.671I-1.374J0.796
G1X54.064Y77.596
X53.988Y77.520
X53.913Y77.445
X53.799Y77.334
X53.688Y77.220
X53.613Y77.145
G2X53.087Y76.774I-1.159J1.084
G1X52.691Y76.614
G2X52.078Y76.491I-0.613J1.464
G1X51.551
G2X51.055Y76.571I0.000J1.588
G2X50.392Y76.774I0.121J1.583
G1X50.241Y76.849
G2X49.779Y77.156I0.634J1.455
G2X49.415Y77.445I0.796J1.374
G1X49.340Y77.520
G2X49.039Y77.905I1.084J1.159
G1X49.029Y77.901
X48.801Y77.794
X48.709Y77.740
G2X48.107Y77.441I-0.990J1.241
G2X47.526Y77.318I-0.613J1.464
G2X47.043Y77.243I-0.484J1.512
G1X46.724
X46.751Y76.951
Y76.726
G2X46.628Y76.113I-1.588J0.000
G1X46.469Y75.716
G2X46.098Y75.191I-1.455J0.634
G1X46.023Y75.116
X45.948Y75.041
X45.872Y74.965
X45.797Y74.890
X45.722Y74.815
X45.647Y74.740
X45.572Y74.665
G2X45.046Y74.294I-1.159J1.084
G1X44.650Y74.135
G2X44.037Y74.011I-0.613J1.464
G1X43.811
G2X43.074Y74.193I0.000J1.588
G1X42.992Y74.179
X42.855Y74.137
X42.471Y73.984
G2X41.857Y73.861I-0.613J1.464
G1X41.331
G2X40.718Y73.984I0.000J1.587
G1X40.392Y74.106
X40.198Y74.024
X40.161Y73.988
G2X39.636Y73.617I-1.159J1.084
G1X39.473Y73.537
X39.110Y73.317
X38.959Y73.242
G2X38.203Y73.035I-0.784J1.380
G1X37.907Y72.866
X37.533Y72.712
G2X37.081Y72.415I-1.086J1.158
G2X36.296Y72.208I-0.784J1.380
G1X35.996
G2X35.383Y72.331I0.000J1.587
G2X34.611Y72.786I0.388J1.539
G1X34.536Y72.861
G2X34.033Y74.021I1.084J1.159
G1Y74.547
G2X34.536Y75.706I1.588J0.000
G1X34.575Y75.747
X34.559Y75.975
Y76.275
G2X34.682Y76.888I1.588J0.000
G1X34.841Y77.285
G2X35.212Y77.810I1.455J-0.634
G2X35.738Y78.182I1.159J-1.084
G1X35.888Y78.257
G2X36.439Y78.447I0.784J-1.380
G2X36.973Y78.539I0.533J-1.495
G1X37.198
X37.323Y78.534
X37.542Y78.787
X37.617Y78.862
G2X38.143Y79.234I1.159J-1.084
G2X38.615Y79.410I0.784J-1.380
G1X38.538Y79.468
G2X38.143Y79.775I0.765J1.391
G1X38.068Y79.850
X37.993Y79.925
G2X37.621Y80.451I1.084J1.159
G1X37.611Y80.470
X37.396Y80.827
G2X37.189Y81.611I1.380J0.784
G1Y81.836
G2X37.396Y82.620I1.587J0.000
G2X37.767Y83.146I1.455J-0.634
G2X38.656Y83.626I1.159J-1.084
G1X38.705Y83.650
G2X39.420Y84.269I1.349J-0.837
G1X39.570Y84.344
G2X40.044Y84.520I0.784J-1.380
G1Y84.692
G2X40.252Y85.476I1.587J0.000
G1X40.418Y85.768
X40.468Y85.906
X40.621Y86.291
X40.778Y86.678
G2X41.149Y87.204I1.455J-0.634
G1X41.224Y87.279
X41.299Y87.354
X41.304Y87.359
G2X41.003Y87.815I1.154J1.090
G1X40.928Y87.966
G2X40.721Y88.750I1.380J0.784
G1Y88.900
X0.058
X0.004Y88.896
X0.000Y88.842
Y0.058
X0.004Y0.004
X0.058Y0.000
X9.990
G0Z5.080
G0X7.151Y14.465
G1Z-6.000F300.0
G1X7.547Y14.306F1000.0
X7.904Y14.091
X8.235Y13.848
X8.430Y13.715
G2X8.825Y13.409I-0.765J-1.391
G1X8.900Y13.333
X8.975Y13.258
G2X9.346Y12.733I-1.084J-1.159
G1X9.421Y12.582
G2X9.618Y11.978I-1.380J-0.784
G1X9.877Y11.755
G2X10.248Y11.230I-1.084J-1.159
G2X10.455Y10.446I-1.380J-0.784
G1Y10.220
G2X10.332Y9.607I-1.588J0.000
G2X9.877Y8.835I-1.539J0.388
G1X9.801Y8.760
G2X9.276Y8.389I-1.159J1.084
G2X8.492Y8.182I-0.784J1.380
G1X8.266
G2X7.494Y8.382I0.000J1.588
G1X7.277Y8.455
G2X6.506Y8.910I0.388J1.539
G1X6.430Y8.985
X6.355Y9.061
G2X5.867Y10.003I1.084J1.159
G1X5.818Y10.049
X5.517Y10.274
G2X4.939Y10.852I0.796J1.374
G2X4.631Y11.315I1.148J1.096
G2X4.424Y12.099I1.380J0.784
G1Y12.625
G2X4.631Y13.409I1.588J0.000
G2X5.003Y13.935I1.455J-0.634
G1X5.078Y14.010
G2X5.849Y14.465I1.159J-1.084
G2X6.463Y14.588I0.613J-1.464
G1X6.538
G2X7.151Y14.465I0.000J-1.588
G0Z5.080
G0X17.316Y22.727
G1Z-6.000F300.0
G2X17.687Y22.201I-1.084J-1.159F1000.0
G1X17.763Y22.051
G2X17.970Y21.267I-1.380J-0.784
G1Y20.891
G2X17.467Y19.732I-1.588J0.000
G1X17.391Y19.656
X17.316Y19.581
X17.241Y19.506
G2X16.082Y19.003I-1.159J1.084
G1X15.631
G2X14.847Y19.210I0.000J1.588
G2X14.321Y19.581I0.634J1.455
G2X13.950Y20.107I1.084J1.159
G2X13.743Y20.891I1.380J0.784
G1Y21.417
G2X13.950Y22.201I1.588J0.000
G2X14.321Y22.727I1.455J-0.634
G2X14.847Y23.098I1.159J-1.084
G2X15.631Y23.305I0.784J-1.380
G1X16.007
G2X16.791Y23.098I0.000J-1.588
G2X17.316Y22.727I-0.634J-1.455
G0Z5.080
G0X8.445Y0.001
G1Z-7.000F300.0
G1X0.040F1000.0
X0.004Y0.004
X0.000Y0.058
Y2.224
X7.968
X7.956Y2.405
Y2.780
X7.969Y2.984
X8.009Y3.186
X8.074Y3.381
X8.163Y3.565
X8.239Y3.715
X8.338Y3.906
X8.463Y4.083
X8.610Y4.241
X8.685Y4.316
X8.760Y4.391
X8.818Y4.446
X0.000
Y6.669
X7.541
X7.519Y6.785
X7.505Y6.989
Y7.364
X7.508Y7.447
X7.428Y7.478
X7.213Y7.549
X7.009Y7.650
X6.821Y7.780
X6.656Y7.933
X6.581Y8.009
X6.506Y8.084
X6.347Y8.255
X6.216Y8.448
X6.094Y8.591
X5.991Y8.748
X5.871Y8.891
X0.000
Y11.114
X4.431
X4.406Y11.164
X4.286Y11.429
X4.156Y11.577
X4.045Y11.740
X3.955Y11.916
X3.880Y12.066
X3.791Y12.250
X3.726Y12.445
X3.686Y12.647
X3.673Y12.850
Y13.336
X0.000
Y15.559
X1.362
X1.350Y15.630
X1.314Y15.693
X1.187Y15.878
X1.086Y16.081
X1.016Y16.295
X0.948Y16.493
X0.906Y16.699
X0.892Y16.908
Y17.434
X0.906Y17.646
X0.934Y17.781
X0.000
Y20.004
G0Z5.080
G0X12.284Y8.891
G1Z-7.000F300.0
G1X11.534F1000.0
X11.448Y8.972
X11.271Y9.096
X11.079Y9.196
X10.802Y9.320
X10.830Y9.586
X10.858Y9.682
X10.926Y9.880
X10.967Y10.086
X10.981Y10.295
Y10.746
X10.968Y10.950
X10.936Y11.114
X11.763
X11.731Y11.265
X11.687Y11.410
X11.613Y11.630
X11.572Y11.857
X11.461Y12.162
X11.393Y12.360
X11.352Y12.566
X11.338Y12.775
Y13.076
X11.352Y13.285
X11.362Y13.336
X9.273
X9.200Y13.409
X9.125Y13.484
X9.050Y13.559
X8.975Y13.634
X8.820Y13.779
X8.646Y13.903
X8.458Y14.002
X8.449Y14.010
X8.230Y14.204
X8.160Y14.422
X8.059Y14.629
X7.929Y14.817
X7.818Y14.992
X7.683Y15.152
X7.528Y15.294
X7.356Y15.413
X7.172Y15.508
X7.070Y15.559
G0Z5.080
G0X44.843Y0.001
G1Z-7.000F300.0
G1X17.326F1000.0
X17.391Y0.194
X17.430Y0.397
X17.444Y0.601
Y0.827
X17.430Y1.036
X17.388Y1.242
X17.320Y1.440
X17.250Y1.654
X17.148Y1.859
X17.019Y2.046
X16.865Y2.212
X16.853Y2.224
X42.580
X42.506Y2.372
X42.431Y2.522
X42.342Y2.706
X42.276Y2.901
X42.237Y3.103
X42.224Y3.307
Y3.833
X42.238Y4.045
X42.282Y4.258
X42.348Y4.446
X17.502
X17.555Y4.504
X17.689Y4.705
X17.692Y4.707
X17.884Y4.806
X18.061Y4.931
X18.218Y5.078
X18.293Y5.153
X18.368Y5.228
X18.444Y5.303
X18.519Y5.378
X18.672Y5.544
X18.802Y5.731
X18.903Y5.936
X18.974Y6.150
X19.048Y6.373
X19.089Y6.604
X19.388
X19.592Y6.617
X19.794Y6.656
X19.831Y6.669
X21.444
G0Z5.080
G0X58.582Y0.001
G1Z-7.000F300.0
G1X63.460F1000.0
X63.496Y0.004
X63.500Y0.058
Y2.224
X59.714
X59.738Y2.346
X59.752Y2.555
Y2.856
X59.738Y3.065
X59.697Y3.271
X59.629Y3.469
X59.568Y3.659
X59.482Y3.842
X59.375Y4.013
X59.247Y4.167
X59.183Y4.359
X59.140Y4.446
X63.500
Y6.669
X56.901
X56.840Y6.796
X56.728Y7.007
X56.587Y7.198
X56.579Y7.222
X56.537Y7.415
X56.473Y7.602
X56.402Y7.816
X56.301Y8.021
X56.171Y8.208
X56.017Y8.374
X55.942Y8.449
X55.867Y8.524
X55.710Y8.671
X55.533Y8.796
X55.349Y8.891
X63.500
Y11.114
X54.175
X54.064Y11.229
X54.052Y11.241
X53.920Y11.436
X53.806Y11.613
X53.670Y11.774
X53.515Y11.915
Y12.099
X53.502Y12.302
X53.462Y12.504
X53.397Y12.699
X53.308Y12.883
X53.200Y13.088
X53.064Y13.275
Y13.336
X63.500
Y15.559
X52.383
X52.344Y15.848
X52.428Y16.027
X52.489Y16.216
X52.526Y16.411
X52.538Y16.608
Y16.983
X52.525Y17.187
X52.485Y17.389
X52.420Y17.584
X52.331Y17.768
X52.324Y17.781
X63.500
G0Z5.080
G0X24.581Y6.669
G1Z-7.000F300.0
G1X43.656F1000.0
X43.704Y6.720
X43.779Y6.796
X43.937Y6.943
X44.113Y7.067
X44.305Y7.167
X44.497Y7.260
X44.701Y7.326
X44.920Y7.399
X45.148Y7.440
X45.452Y7.551
X45.678Y7.626
X45.876Y7.694
X46.082Y7.736
X46.291Y7.750
X46.892
X47.104Y7.736
X47.314Y7.693
X47.517Y7.621
X47.708Y7.524
X47.882Y7.403
X48.024Y7.315
X48.157Y7.212
X48.277Y7.096
X48.419Y6.945
X48.541Y6.776
X48.598Y6.669
X48.812
G0Z5.080
G0X46.929Y8.891
G1Z-7.000F300.0
G1X25.464F1000.0
X25.463Y8.905
X25.485Y9.168
Y9.694
X25.471Y9.898
X25.432Y10.100
X25.367Y10.295
X25.277Y10.478
X25.209Y10.617
X25.136Y10.833
X25.061Y11.059
X25.043Y11.114
X44.888
X44.868Y11.213
X44.854Y11.422
Y11.573
X44.863Y11.741
X44.890Y11.907
X44.934Y12.070
X44.968Y12.299
X45.037Y12.523
X45.136Y12.733
X45.211Y12.883
X45.311Y13.074
X45.435Y13.251
X45.515Y13.336
X23.917
X23.779Y13.484
X23.704Y13.559
X23.629Y13.634
X23.473Y13.780
X23.296Y13.905
X23.101Y14.006
X22.895Y14.079
X22.682Y14.123
X22.469Y14.137
X21.943
X21.740Y14.124
X21.538Y14.085
X21.343Y14.019
X21.159Y13.930
X20.968Y13.831
X20.791Y13.706
X20.633Y13.559
X20.558Y13.484
X20.483Y13.409
X20.416Y13.336
X19.463
G0Z5.080
G0X7.070Y15.559
G1Z-7.000F300.0
G1X44.929F1000.0
Y15.856
X44.943Y16.065
X44.984Y16.271
X45.052Y16.470
X45.118Y16.673
X45.211Y16.866
X45.311Y17.057
X45.435Y17.234
X45.583Y17.391
X45.658Y17.467
X45.733Y17.542
X45.890Y17.689
X46.021Y17.781
X20.997
G0Z5.080
G0X63.500
G1Z-7.000F300.0
G1Y20.004F1000.0
X22.437
X22.437Y20.005
X22.468Y20.184
X22.479Y20.365
Y20.440
X22.468Y20.621
X22.437Y20.800
X22.386Y20.974
X22.346Y21.165
X22.282Y21.350
X22.196Y21.525
X22.097Y21.716
X21.972Y21.893
X21.825Y22.051
X21.750Y22.126
X21.675Y22.201
X21.650Y22.226
X63.500
Y24.449
X20.583
G0Z5.080
G0X13.390Y17.781
G1Z-7.000F300.0
G1X5.504F1000.0
G0Z5.080
G0X0.000Y20.004
G1Z-7.000F300.0
G1X13.631F1000.0
X13.575Y20.167
X13.534Y20.358
X13.490Y20.503
X13.422Y20.701
X13.381Y20.908
X13.367Y21.117
Y21.461
X13.311Y21.699
X13.292Y21.943
Y22.226
X0.000
Y24.449
X15.698
X15.710Y24.627
X15.749Y24.829
X15.815Y25.024
X15.904Y25.207
X16.003Y25.398
X16.128Y25.575
X16.275Y25.733
X16.350Y25.808
X16.425Y25.883
X16.583Y26.030
X16.760Y26.155
X16.951Y26.254
X17.134Y26.343
X17.329Y26.409
X17.531Y26.448
X17.735Y26.461
X18.111
X18.314Y26.448
X18.516Y26.409
X18.711Y26.343
X18.895Y26.254
X19.045Y26.179
X19.236Y26.080
X19.413Y25.955
X19.571Y25.808
X19.718Y25.650
X19.843Y25.474
X19.942Y25.282
X19.948Y25.272
X20.097Y25.132
X20.172Y25.057
X20.319Y24.899
X20.444Y24.722
X20.543Y24.531
X20.583Y24.449
G0Z5.080
G0X63.500Y26.671
G1Z-7.000F300.0
G1X0.000F1000.0
Y28.894
X63.500
Y31.116
X0.000
Y33.339
X50.051
X50.039Y33.516
Y33.967
X50.052Y34.170
X50.092Y34.372
X50.157Y34.567
X50.246Y34.751
X50.321Y34.901
X50.431Y35.109
X50.573Y35.302
X50.743Y35.472
X50.864Y35.561
X0.000
Y37.784
G0Z5.080
G0X55.694Y33.339
G1Z-7.000F300.0
G1X63.500F1000.0
Y35.561
X53.744
G0Z5.080
G0X0.000Y37.784
G1Z-7.000F300.0
G1X63.500F1000.0
Y40.006
X0.000
Y42.229
X63.500
Y44.451
X0.000
Y46.674
X63.500
Y48.896
X0.000
Y51.119
X50.268
X50.201Y51.189
X50.098Y51.321
X50.010Y51.463
X49.882Y51.649
X49.782Y51.851
X49.711Y52.065
X49.647Y52.252
X49.605Y52.446
X49.557Y52.609
X49.526Y52.777
X49.513Y52.946
X49.457Y53.185
X49.445Y53.341
X0.000
Y55.564
X50.245
X50.332Y55.645
X50.520Y55.775
X50.724Y55.876
X50.938Y55.946
X51.136Y56.014
X51.342Y56.056
X51.551Y56.070
X51.627
X51.836Y56.056
X52.042Y56.014
X52.240Y55.946
X52.454Y55.876
X52.659Y55.775
X52.846Y55.645
X52.934Y55.564
G0Z5.080
G0X63.500Y51.119
G1Z-7.000F300.0
G1X55.445F1000.0
X55.535Y51.247
X55.627Y51.420
X55.696Y51.602
X55.824Y51.812
X55.918Y52.042
X55.976Y52.284
X55.995Y52.528
Y52.979
X55.981Y53.183
X55.950Y53.341
X63.500
Y55.564
X52.934
G0Z5.080
G0X63.500Y57.786
G1Z-7.000F300.0
G1X0.000F1000.0
Y60.009
X63.500
Y62.231
X0.000
Y64.454
X63.500
Y66.676
X0.000
Y68.899
X63.500
Y71.121
X0.000
Y73.344
X33.512
X33.471Y73.429
X33.404Y73.633
X33.336Y73.831
X33.295Y74.037
X33.281Y74.246
Y74.622
X33.294Y74.825
X33.334Y75.027
X33.399Y75.222
X33.488Y75.406
X33.571Y75.566
X0.000
Y77.789
X33.751
X33.787Y77.968
X33.855Y78.166
X33.926Y78.380
X34.027Y78.585
X34.157Y78.772
X34.310Y78.938
X34.385Y79.013
X34.461Y79.088
X34.626Y79.241
X34.814Y79.371
X35.018Y79.472
X35.232Y79.543
X35.430Y79.611
X35.637Y79.652
X35.846Y79.666
X36.071
X36.252Y79.656
X36.431Y79.625
X36.604Y79.574
X36.811Y79.529
X37.009Y79.457
X37.016Y79.464
X37.027Y79.475
X37.158Y79.668
X37.316Y79.839
X37.391Y79.915
X37.467Y79.990
X37.472Y79.995
X37.467Y80.000
X37.456Y80.011
X0.000
Y82.234
X36.287
Y82.512
X36.300Y82.716
X36.340Y82.918
X36.405Y83.113
X36.494Y83.297
X36.593Y83.488
X36.718Y83.665
X36.865Y83.822
X37.023Y83.969
X37.200Y84.094
X37.391Y84.193
X37.541Y84.269
X37.692Y84.344
X37.875Y84.433
X37.945Y84.456
X0.000
Y86.678
X40.443
X40.477Y86.841
X40.541Y87.028
X40.627Y87.204
X40.767Y87.459
X40.648Y87.630
X40.552Y87.815
X40.463Y87.999
X40.398Y88.194
X40.358Y88.396
X40.345Y88.599
Y88.899
X0.040
G0Z5.080
G0X40.163Y73.344
G1Z-7.000F300.0
G1X48.430F1000.0
X48.432Y73.337
X48.518Y73.161
X48.617Y72.970
X48.742Y72.793
X48.889Y72.636
X49.047Y72.489
X49.223Y72.364
X49.415Y72.265
X49.598Y72.175
X49.793Y72.110
X49.995Y72.071
X50.199Y72.057
X50.575
X50.778Y72.071
X50.980Y72.110
X51.175Y72.175
X51.359Y72.265
X51.550Y72.364
X51.727Y72.489
X51.884Y72.636
X51.959Y72.711
X52.107Y72.868
X52.231Y73.045
X52.331Y73.237
X52.384Y73.344
X63.500
Y75.566
X52.538
Y75.674
X52.525Y75.877
X52.486Y76.077
X52.422Y76.270
X52.652Y76.305
X52.876Y76.373
X53.087Y76.473
X53.278Y76.572
X53.455Y76.697
X53.613Y76.844
X53.688Y76.919
X53.763Y76.994
X53.838Y77.070
X54.017Y77.267
X54.214Y77.445
X54.325Y77.560
X54.439Y77.671
X54.515Y77.746
X54.557Y77.789
X63.500
Y80.011
X55.230
X55.190Y80.213
X55.125Y80.408
X55.036Y80.591
X54.961Y80.742
X54.886Y80.892
X54.717Y81.188
Y81.310
X54.704Y81.514
X54.664Y81.716
X54.599Y81.911
X54.510Y82.094
X54.437Y82.234
X63.500
Y84.456
X52.092
X52.143Y84.672
X52.162Y84.917
Y85.368
X52.161Y85.414
X52.266Y85.580
X52.394Y85.766
X52.494Y85.969
X52.565Y86.183
X52.633Y86.381
X52.674Y86.587
X52.680Y86.678
X63.500
Y88.842
X63.496Y88.896
X63.460Y88.899
X51.990
G0Z5.080
G0X46.940Y75.566
G1Z-7.000F300.0
G1X46.617Y75.566F1000.0
G0Z5.080
G0X8.446Y0.000
G1Z-7.000F300.0
G1X8.389Y0.118F1000.0
G2X8.182Y0.902I1.380J0.784
G1Y1.428
X8.188Y1.567
X8.163Y1.621
G2X7.956Y2.405I1.380J0.784
G1Y2.780
G2X8.163Y3.565I1.588J0.000
G1X8.239Y3.715
G2X8.610Y4.241I1.455J-0.634
G1X8.685Y4.316
X8.760Y4.391
X8.883Y4.509
X8.760Y4.627
G2X8.389Y5.153I1.084J1.159
G1X8.232Y5.539
X8.084Y5.679
G2X7.713Y6.205I1.084J1.159
G2X7.505Y6.989I1.380J0.784
G1Y7.364
X7.508Y7.447
X7.428Y7.478
G2X6.656Y7.933I0.388J1.539
G1X6.581Y8.009
X6.506Y8.084
G2X6.216Y8.448I1.084J1.159
G1X5.991Y8.748
G2X5.600Y9.456I1.148J1.096
G1X5.527Y9.673
X5.378Y10.042
G2X5.003Y10.338I0.784J1.380
G1X4.928Y10.413
X4.852Y10.488
G2X4.481Y11.014I1.084J1.159
G1X4.406Y11.164
X4.286Y11.429
G2X3.955Y11.916I1.124J1.121
G1X3.880Y12.066
G2X3.673Y12.850I1.380J0.784
G1Y13.602
X3.679Y13.743
X3.307
G2X2.147Y14.246I0.000J1.588
G1X2.072Y14.321
X1.997Y14.396
X1.922Y14.471
G2X1.550Y14.997I1.084J1.159
G2X1.350Y15.630I1.380J0.784
G1X1.314Y15.693
G2X1.016Y16.295I1.241J0.990
G2X0.892Y16.908I1.464J0.613
G1Y17.434
G2X1.239Y18.424I1.588J0.000
G2X1.996Y19.115I1.391J-0.765
G2X2.780Y19.322I0.784J-1.380
G1X3.231
G2X4.015Y19.115I0.000J-1.588
G2X4.541Y18.744I-0.634J-1.455
G1X4.616Y18.669
X4.691Y18.594
X4.703Y18.583
G2X5.067Y18.293I-0.796J-1.374
G1X5.142Y18.218
X5.217Y18.143
G2X5.589Y17.617I-1.084J-1.159
G2X5.796Y16.833I-1.380J-0.784
G1Y16.382
X5.792Y16.270
X5.796Y16.157
Y15.784
X5.937Y15.790
X6.237
G2X7.021Y15.583I0.000J-1.588
G1X7.172Y15.508
G2X7.929Y14.817I-0.634J-1.455
G2X8.230Y14.204I-1.241J-0.990
G1X8.449Y14.010
X8.458Y14.002
G2X8.975Y13.634I-0.642J-1.452
G1X9.050Y13.559
X9.125Y13.484
X9.200Y13.409
X9.275Y13.333
G2X9.714Y12.624I-1.084J-1.159
G2X10.177Y12.281I-0.696J-1.427
G1X10.252Y12.206
X10.328Y12.131
X10.403Y12.056
G2X10.774Y11.530I-1.084J-1.159
G2X10.981Y10.746I-1.380J-0.784
G1Y10.295
G2X10.858Y9.682I-1.588J0.000
G1X10.830Y9.586
X10.802Y9.320
X11.079Y9.196
G2X11.605Y8.825I-0.634J-1.455
G1X11.680Y8.749
X11.764Y8.665
X11.962Y8.530
X12.291Y8.290
X12.391Y8.567
G2X12.257Y9.010I1.436J0.676
G2X12.165Y9.544I1.495J0.533
G1Y9.769
X12.196Y10.084
X12.146Y10.187
X12.071Y10.338
X11.996Y10.488
X11.837Y10.884
X11.731Y11.265
X11.687Y11.410
G2X11.572Y11.857I1.464J0.613
G1X11.461Y12.162
G2X11.338Y12.775I1.464J0.613
G1Y13.076
G2X11.461Y13.689I1.588J0.000
G2X11.916Y14.461I1.539J-0.388
G1X11.991Y14.536
X12.067Y14.611
X12.142Y14.686
G2X13.301Y15.189I1.159J-1.084
G1X13.978
G2X14.762Y14.982I0.000J-1.588
G2X15.287Y14.611I-0.634J-1.455
G1X15.362Y14.536
G2X15.734Y14.010I-1.084J-1.159
G1X15.809Y13.860
X15.820Y13.840
X15.908Y13.718
X15.974Y13.784
G2X16.500Y14.155I1.159J-1.084
G2X17.284Y14.363I0.784J-1.380
G1X17.735
G2X18.519Y14.155I0.000J-1.588
G2X19.045Y13.784I-0.634J-1.455
G1X19.120Y13.709
X19.195Y13.634
X19.270Y13.559
G2X19.641Y13.033I-1.084J-1.159
G1X19.795Y12.659
X19.796Y12.657
X19.871Y12.582
X19.957Y12.496
X20.030Y12.646
G2X20.483Y13.409I1.537J-0.397
G1X20.558Y13.484
X20.633Y13.559
G2X21.159Y13.930I1.159J-1.084
G2X21.943Y14.137I0.784J-1.380
G1X22.469
G2X23.629Y13.634I0.000J-1.588
G1X23.704Y13.559
X23.779Y13.484
G2X24.150Y12.958I-1.084J-1.159
G1X24.307Y12.571
X24.376Y12.432
X24.535Y12.036
X24.570Y11.942
G2X24.902Y11.455I-1.124J-1.121
G1X25.061Y11.059
X25.136Y10.833
X25.209Y10.617
X25.277Y10.478
G2X25.485Y9.694I-1.380J-0.784
G1Y9.168
X25.463Y8.905
X25.485Y8.642
Y8.341
G2X25.277Y7.557I-1.588J0.000
G1X25.202Y7.407
G2X24.831Y6.881I-1.455J0.634
G2X24.305Y6.510I-1.159J1.084
G2X23.521Y6.303I-0.784J1.380
G1X22.770
G2X22.273Y6.383I0.000J1.588
G2X21.610Y6.585I0.121J1.583
G1X21.460Y6.660
X21.103Y6.875
G2X20.709Y7.182I0.765J1.391
G1X20.703Y7.187
X20.698Y7.182
G2X20.172Y6.811I-1.159J1.084
G2X19.388Y6.604I-0.784J1.380
G1X19.089
G2X18.974Y6.150I-1.579J0.160
G2X18.519Y5.378I-1.539J0.388
G1X18.444Y5.303
X18.368Y5.228
X18.293Y5.153
X18.218Y5.078
G2X17.692Y4.707I-1.159J1.084
G1X17.689Y4.705
G2X17.391Y4.326I-1.382J0.781
G1X17.316Y4.251
X17.241Y4.176
X17.166Y4.101
G2X16.394Y3.646I-1.159J1.084
G2X15.814Y3.523I-0.613J1.464
G1X15.786Y3.514
X15.888Y3.414
X15.964Y3.339
X16.039Y3.264
G2X16.410Y2.738I-1.084J-1.159
G1X16.485Y2.588
X16.491Y2.577
X16.640Y2.437
X16.715Y2.362
X16.790Y2.287
X16.865Y2.212
G2X17.320Y1.440I-1.084J-1.159
G2X17.444Y0.827I-1.464J-0.613
G1Y0.601
G2X17.325Y0.000I-1.588J0.000
G1X44.846
X44.756Y0.047
G2X44.230Y0.419I0.634J1.455
G1X44.155Y0.494
X44.080Y0.569
X44.004Y0.644
G2X43.715Y1.008I1.084J1.159
G1X43.704Y1.020
X43.692Y1.031
G2X43.328Y1.320I0.796J1.374
G1X43.253Y1.396
X43.178Y1.471
X43.103Y1.546
X43.028Y1.621
X42.952Y1.696
G2X42.581Y2.222I1.084J1.159
G1X42.506Y2.372
X42.431Y2.522
G2X42.224Y3.307I1.380J0.784
G1Y3.833
G2X42.727Y4.992I1.588J0.000
G1X42.802Y5.067
X42.877Y5.142
X42.952Y5.217
X43.028Y5.293
X43.201Y5.452
Y5.561
G2X43.704Y6.720I1.588J0.000
G1X43.779Y6.796
G2X44.305Y7.167I1.159J-1.084
G1X44.701Y7.326
G2X45.148Y7.440I0.613J-1.464
G1X45.452Y7.551
X45.678Y7.626
G2X46.291Y7.750I0.613J-1.464
G1X46.892
G2X47.882Y7.403I0.000J-1.588
G2X48.277Y7.096I-0.765J-1.391
G2X48.638Y6.593I-1.084J-1.159
G1X48.839Y6.680
X49.050Y6.958
X49.159Y7.120
G2X49.062Y7.665I1.491J0.545
G1Y8.116
X49.077Y8.332
X48.470
G2X47.857Y8.455I0.000J1.588
G1X47.632Y8.530
G2X47.029Y8.829I0.388J1.539
G2X46.635Y9.136I0.765J1.391
G1X46.559Y9.211
X46.454Y9.319
X46.183Y9.441
X46.033Y9.516
G2X45.507Y9.887I0.634J1.455
G2X45.136Y10.413I1.084J1.159
G1X44.977Y10.809
G2X44.854Y11.422I1.464J0.613
G1Y11.573
G2X44.934Y12.070I1.588J0.000
G2X45.136Y12.733I1.583J-0.121
G1X45.211Y12.883
G2X45.583Y13.409I1.455J-0.634
G1X45.658Y13.484
X45.733Y13.559
X45.739Y13.565
X45.737Y13.569
X45.666Y13.711
X45.658Y13.720
X45.583Y13.795
G2X45.276Y14.190I1.084J1.159
G2X44.929Y15.180I1.241J0.990
G1Y15.856
G2X45.052Y16.470I1.588J0.000
G1X45.211Y16.866
G2X45.583Y17.391I1.455J-0.634
G1X45.658Y17.467
X45.733Y17.542
G2X46.258Y17.913I1.159J-1.084
G1X46.547Y18.041
X46.710Y18.218
X46.785Y18.293
G2X47.311Y18.664I1.159J-1.084
G1X47.330Y18.675
G2X47.923Y18.971I0.990J-1.241
G1X48.062Y19.040
X48.458Y19.199
G2X48.950Y19.318I0.613J-1.464
G2X49.447Y19.398I0.497J-1.508
G1X49.673
G2X50.457Y19.190I0.000J-1.588
G2X50.866Y18.932I-0.634J-1.455
G2X51.809Y18.444I-0.216J-1.573
G1X51.884Y18.368
X51.959Y18.293
G2X52.331Y17.768I-1.084J-1.159
G2X52.538Y16.983I-1.380J-0.784
G1Y16.608
G2X52.344Y15.848I-1.588J0.000
G1X52.387Y15.530
G2X52.631Y15.137I-1.211J-1.026
G1X52.790Y14.741
G2X52.909Y14.249I-1.464J-0.613
G1X52.941Y14.140
G2X53.064Y13.527I-1.464J-0.613
G1Y13.275
G2X53.308Y12.883I-1.212J-1.026
G2X53.515Y12.099I-1.380J-0.784
G1Y11.915
G2X53.920Y11.436I-0.986J-1.244
G1X54.052Y11.241
X54.064Y11.229
G2X54.370Y10.834I-1.084J-1.159
G1X54.503Y10.640
G2X54.811Y10.178I-1.148J-1.096
G1X54.967Y9.790
G2X55.168Y9.018I-1.387J-0.773
G1Y8.980
X55.342Y8.895
G2X55.867Y8.524I-0.634J-1.455
G1X55.942Y8.449
X56.017Y8.374
G2X56.473Y7.602I-1.084J-1.159
G1X56.579Y7.222
X56.587Y7.198
G2X56.840Y6.796I-1.203J-1.036
G1X56.999Y6.400
G2X57.120Y5.869I-1.464J-0.613
G2X57.651Y5.748I-0.082J-1.585
G1X58.047Y5.589
G2X58.572Y5.217I-0.634J-1.455
G1X58.648Y5.142
X58.723Y5.067
G2X59.094Y4.542I-1.084J-1.159
G1X59.247Y4.167
G2X59.629Y3.469I-1.158J-1.086
G2X59.752Y2.856I-1.464J-0.613
G1Y2.555
G2X59.629Y1.942I-1.588J0.000
G1X59.470Y1.545
G2X59.099Y1.020I-1.455J0.634
G1X59.023Y0.945
X58.753Y0.714
X58.695Y0.480
G2X58.582Y0.000I-1.583J0.121
G1X63.442
X63.496Y0.004
X63.500Y0.058
Y88.842
X63.496Y88.896
X63.442Y88.900
X51.989
G2X52.255Y88.482I-1.189J-1.052
G1X52.331Y88.331
X52.406Y88.181
X52.565Y87.785
G2X52.688Y87.172I-1.464J-0.613
G1Y86.796
G2X52.565Y86.183I-1.587J0.000
G2X52.266Y85.580I-1.539J0.388
G1X52.161Y85.414
X52.162Y85.368
Y84.917
G2X52.087Y84.433I-1.588J0.000
G2X51.964Y83.853I-1.587J0.033
G1X51.828Y83.499
X51.852Y83.499
X52.078
G2X52.561Y83.423I0.000J-1.588
G2X53.142Y83.300I-0.033J-1.587
G2X53.913Y82.845I-0.388J-1.539
G1X53.988Y82.770
X54.064Y82.695
X54.139Y82.620
G2X54.510Y82.094I-1.084J-1.159
G2X54.717Y81.310I-1.380J-0.784
G1Y81.188
X54.886Y80.892
X54.961Y80.742
X55.036Y80.591
G2X55.243Y79.807I-1.380J-0.784
G1Y79.206
G2X54.897Y78.216I-1.588J0.000
G2X54.590Y77.821I-1.391J0.765
G1X54.515Y77.746
X54.439Y77.671
X54.325Y77.560
X54.214Y77.445
X54.017Y77.267
X53.838Y77.070
X53.763Y76.994
X53.688Y76.919
X53.613Y76.844
G2X53.087Y76.473I-1.159J1.084
G2X52.422Y76.270I-0.784J1.380
G2X52.538Y75.674I-1.471J-0.596
G1Y75.180
G2X52.613Y74.697I-1.512J-0.483
G1Y74.171
G2X52.406Y73.387I-1.587J0.000
G1X52.331Y73.237
G2X51.959Y72.711I-1.455J0.634
G1X51.884Y72.636
G2X51.359Y72.265I-1.159J1.084
G2X50.575Y72.057I-0.784J1.380
G1X50.199
G2X49.415Y72.265I0.000J1.587
G2X48.889Y72.636I0.634J1.455
G2X48.518Y73.161I1.084J1.159
G2X48.328Y73.713I1.380J0.784
G2X48.236Y74.246I1.495J0.533
G1Y74.340
X48.075Y74.534
G2X47.386Y74.965I0.471J1.516
G1X47.311Y75.041
G2X46.940Y75.566I1.084J1.159
G1X46.792Y75.920
X46.695Y75.716
G2X46.323Y75.191I-1.455J0.634
G1X46.248Y75.116
X46.173Y75.041
X46.098Y74.965
X46.023Y74.890
X46.012Y74.878
G2X45.722Y74.514I-1.374J0.796
G1X45.647Y74.439
G2X45.121Y74.068I-1.159J1.084
G1X44.971Y73.993
G2X44.187Y73.786I-0.784J1.380
G1X43.586
G2X42.982Y73.905I0.000J1.587
G1X42.775Y73.870
X42.717Y73.843
G2X42.165Y73.653I-0.784J1.380
G2X41.632Y73.560I-0.533J1.495
G1X41.557
G2X41.023Y73.653I0.000J1.588
G1X40.611Y73.773
X40.462Y73.613
X40.387Y73.538
G2X39.861Y73.166I-1.159J1.084
G2X39.077Y72.959I-0.784J1.380
G1X39.000
G2X38.558Y72.826I-0.674J1.437
G1X38.500Y72.807
X38.208Y72.640
X38.066Y72.569
X38.057Y72.561
G2X37.662Y72.254I-1.159J1.084
G1X37.306Y72.039
X37.156Y71.964
X37.005Y71.889
X36.986Y71.878
G2X35.996Y71.531I-0.990J1.241
G1X35.620
G2X34.461Y72.035I0.000J1.588
G1X34.385Y72.110
X34.310Y72.185
X34.235Y72.260
X34.160Y72.335
X34.085Y72.410
G2X33.714Y72.936I1.084J1.159
G1X33.639Y73.086
X33.563Y73.237
X33.404Y73.633
G2X33.281Y74.246I1.464J0.613
G1Y74.622
G2X33.488Y75.406I1.587J0.000
G2X33.859Y75.932I1.455J-0.634
G1X33.935Y76.007
X33.989Y76.063
X33.855Y76.413
G2X33.732Y77.027I1.464J0.613
G1Y77.553
G2X33.855Y78.166I1.588J0.000
G2X34.310Y78.938I1.539J-0.388
G1X34.385Y79.013
X34.461Y79.088
G2X35.232Y79.543I1.159J-1.084
G2X35.846Y79.666I0.613J-1.464
G1X36.071
G2X36.604Y79.574I0.000J-1.587
G1X37.009Y79.457
X37.016Y79.464
X37.027Y79.475
G2X37.316Y79.839I1.374J-0.796
G1X37.391Y79.915
X37.467Y79.990
X37.472Y79.995
X37.467Y80.000
X37.391Y80.075
X37.316Y80.151
G2X36.949Y80.668I1.084J1.159
G1X36.941Y80.677
G2X36.569Y81.202I1.084J1.159
G1X36.494Y81.353
G2X36.287Y82.137I1.380J0.784
G1Y82.512
G2X36.494Y83.297I1.588J0.000
G2X36.865Y83.822I1.455J-0.634
G2X37.391Y84.193I1.159J-1.084
G1X37.541Y84.269
X37.692Y84.344
G2X38.476Y84.551I0.784J-1.380
G1X39.152
X39.163Y84.551
G2X39.591Y84.728I0.816J-1.362
G1X39.830Y84.807
X39.942Y85.230
X40.101Y85.626
X40.176Y85.776
X40.245Y85.915
X40.368Y86.240
X40.421Y86.453
G2X40.627Y87.204I1.587J-0.033
G1X40.767Y87.459
X40.552Y87.815
G2X40.345Y88.599I1.380J0.784
G1Y88.900
X0.058
X0.004Y88.896
X0.000Y88.842
Y0.058
X0.004Y0.004
X0.058Y0.000
X8.446
G0Z5.080
G0X13.757Y19.736
G1Z-7.000F300.0
G1X13.724Y19.806F1000.0
G2X13.534Y20.358I1.380J0.784
G1X13.490Y20.503
G2X13.367Y21.117I1.464J0.613
G1Y21.461
G2X13.292Y21.943I1.512J0.483
G1Y22.319
G2X13.499Y23.103I1.588J0.000
G2X13.870Y23.629I1.455J-0.634
G2X14.396Y24.000I1.159J-1.084
G2X15.180Y24.207I0.784J-1.380
G1X15.556
X15.697Y24.201
Y24.423
G2X15.904Y25.207I1.588J0.000
G2X16.275Y25.733I1.455J-0.634
G1X16.350Y25.808
X16.425Y25.883
G2X16.951Y26.254I1.159J-1.084
G2X17.735Y26.461I0.784J-1.380
G1X18.111
G2X18.895Y26.254I0.000J-1.588
G1X19.045Y26.179
G2X19.571Y25.808I-0.634J-1.455
G2X19.942Y25.282I-1.084J-1.159
G1X19.948Y25.272
X20.097Y25.132
X20.172Y25.057
G2X20.543Y24.531I-1.084J-1.159
G1X20.702Y24.135
G2X20.824Y23.579I-1.464J-0.613
G1X20.848Y23.554
G2X21.219Y23.028I-1.084J-1.159
G1X21.300Y22.865
X21.520Y22.502
X21.640Y22.237
X21.675Y22.201
X21.750Y22.126
X21.825Y22.051
G2X22.196Y21.525I-1.084J-1.159
G2X22.386Y20.974I-1.380J-0.784
G2X22.479Y20.440I-1.495J-0.533
G1Y20.365
G2X22.386Y19.832I-1.588J0.000
G2X22.196Y19.280I-1.570J0.233
G2X21.825Y18.755I-1.455J0.634
G1X21.750Y18.680
X21.675Y18.604
X21.352Y18.340
X21.295Y18.228
G2X20.923Y17.703I-1.455J0.634
G1X20.848Y17.628
G2X20.323Y17.256I-1.159J1.084
G2X19.538Y17.049I-0.784J1.380
G1X19.163
G2X18.549Y17.172I0.000J1.588
G2X18.058Y17.390I0.388J1.539
G2X17.692Y16.876I-1.450J0.645
G1X17.617Y16.801
X17.542Y16.726
X17.467Y16.651
X17.391Y16.575
X17.316Y16.500
G2X16.545Y16.045I-1.159J1.084
G2X15.931Y15.922I-0.613J1.464
G1X15.556
G2X14.772Y16.129I0.000J1.588
G1X14.621Y16.204
G2X14.096Y16.575I0.634J1.455
G1X14.020Y16.651
X13.945Y16.726
G2X13.574Y17.251I1.084J1.159
G2X13.367Y18.036I1.380J0.784
G1Y18.637
G2X13.574Y19.421I1.588J0.000
G1X13.757Y19.736
G0Z5.080
G0X50.938Y55.946
G1Z-7.000F300.0
G2X51.551Y56.070I0.613J-1.464F1000.0
G1X51.627
G2X52.240Y55.946I0.000J-1.588
G2X53.012Y55.491I-0.388J-1.539
G2X53.318Y55.097I-1.084J-1.159
G1X53.403Y54.981
X53.554Y54.867
X53.580
X53.656Y54.866
X53.731Y54.867
X54.107
G2X54.891Y54.660I0.000J-1.588
G2X55.416Y54.289I-0.634J-1.455
G2X55.787Y53.763I-1.084J-1.159
G2X55.995Y52.979I-1.380J-0.784
G1Y52.528
G2X55.696Y51.602I-1.587J0.000
G2X55.423Y51.087I-1.515J0.476
G2X54.796Y50.461I-1.391J0.765
G1X54.440Y50.246
G2X53.656Y50.039I-0.784J1.380
G1X53.205
G2X52.421Y50.246I0.000J1.588
G1X52.125Y50.415
X51.702
G2X50.918Y50.622I0.000J1.588
G2X50.392Y50.993I0.634J1.455
G1X50.317Y51.068
G2X50.010Y51.463I1.084J1.159
G2X49.711Y52.065I1.241J0.990
G1X49.605Y52.446
G2X49.513Y52.946I1.495J0.533
G2X49.438Y53.430I1.512J0.484
G1Y53.956
G2X49.645Y54.740I1.588J0.000
G1X49.720Y54.891
G2X50.091Y55.416I1.455J-0.634
G1X50.167Y55.491
G2X50.938Y55.946I1.159J-1.084
G0Z5.080
G0X52.938Y31.574
G1Z-7.000F300.0
G1X52.679Y31.553F1000.0
X52.002
G2X51.218Y31.760I0.000J1.588
G2X50.693Y32.131I0.634J1.455
G1X50.617Y32.206
G2X50.246Y32.732I1.084J1.159
G2X50.039Y33.516I1.380J0.784
G1Y33.967
G2X50.246Y34.751I1.588J0.000
G1X50.321Y34.901
G2X51.143Y35.723I1.455J-0.634
G1X51.293Y35.798
G2X52.078Y36.005I0.784J-1.380
G1X52.528
G2X53.313Y35.798I0.000J-1.588
G1X53.463Y35.723
G2X54.083Y35.241I-0.634J-1.455
G2X54.665Y35.047I-0.202J-1.575
G2X55.487Y34.225I-0.634J-1.455
G2X55.694Y33.441I-1.380J-0.784
G1Y33.215
G2X55.191Y32.056I-1.588J0.000
G1X55.116Y31.981
X55.041Y31.906
G2X53.881Y31.402I-1.159J1.084
G1X53.656
G2X52.938Y31.574I0.000J1.588
G0Z5.080
G0X7.625Y0.001
G1Z-8.000F300.0
G1X0.040F1000.0
X0.004Y0.004
X0.000Y0.058
Y2.224
X7.694
X7.670Y2.346
X7.656Y2.555
Y2.931
X7.657Y3.001
X7.485Y3.097
X7.325Y3.214
X7.182Y3.349
X7.107Y3.425
X7.032Y3.500
X6.886Y3.655
X6.761Y3.833
X6.660Y4.027
X6.587Y4.234
X6.543Y4.446
X0.000
Y6.669
X6.939
X6.921Y6.756
X6.887Y6.863
X6.652Y6.932
X6.430Y7.036
X6.280Y7.111
X6.130Y7.187
X5.938Y7.286
X5.761Y7.411
X5.604Y7.558
X5.529Y7.633
X5.454Y7.708
X5.308Y7.864
X5.183Y8.041
X5.082Y8.235
X5.008Y8.442
X4.965Y8.655
X4.950Y8.867
Y8.891
X0.000
Y11.114
X4.134
X4.083Y11.219
X4.013Y11.446
X3.944Y11.560
X3.825Y11.731
X3.730Y11.916
X3.637Y12.109
X3.571Y12.312
X3.503Y12.510
X3.461Y12.716
X3.447Y12.925
Y13.098
X3.349Y13.194
X3.274Y13.269
X3.219Y13.323
X3.167Y13.336
X0.000
Y15.559
X0.974
G0Z5.080
G0X24.281Y0.001
G1Z-8.000F300.0
G1X17.737F1000.0
X17.740Y0.029
X17.784Y0.191
X17.811Y0.358
X17.819Y0.526
Y1.052
X17.806Y1.256
X17.767Y1.458
X17.701Y1.653
X17.612Y1.836
X17.513Y2.027
X17.388Y2.204
X17.370Y2.224
X23.722
X23.734Y2.275
X23.821Y2.496
X23.860Y2.717
X23.932Y2.933
X24.034Y3.138
X24.163Y3.325
X24.316Y3.489
X24.473Y3.636
X24.650Y3.761
X24.841Y3.860
X25.025Y3.949
X25.220Y4.015
X25.422Y4.054
X25.625Y4.067
X25.851
X26.054Y4.054
X26.256Y4.015
X26.451Y3.949
X26.635Y3.860
X26.799Y3.777
X26.954Y3.675
X27.094Y3.556
X27.282Y3.457
X27.456Y3.334
X27.612Y3.188
X27.687Y3.113
X27.762Y3.038
X27.837Y2.963
X27.984Y2.805
X28.109Y2.629
X28.208Y2.437
X28.297Y2.254
X28.307Y2.224
G0Z5.080
G0X28.018Y0.001
G1Z-8.000F300.0
G1X44.406F1000.0
X44.235Y0.123
X44.080Y0.268
X44.004Y0.343
X43.929Y0.419
X43.854Y0.494
X43.626Y0.760
X43.464Y0.854
X43.314Y0.966
X43.178Y1.095
X43.103Y1.170
X43.028Y1.245
X42.882Y1.400
X42.759Y1.574
X42.660Y1.763
X42.652Y1.771
X42.577Y1.846
X42.461Y1.967
X42.358Y2.099
X42.281Y2.224
X28.307
G0Z5.080
G0X17.892Y4.446
G1Z-8.000F300.0
G1X42.021F1000.0
X42.055Y4.541
X42.151Y4.727
X42.270Y4.898
X42.358Y5.040
X42.461Y5.172
X42.577Y5.293
X42.754Y5.456
X42.784Y5.665
X42.842Y5.869
X42.883Y6.060
X42.946Y6.245
X43.032Y6.420
X43.131Y6.611
X43.172Y6.669
X24.994
X25.057Y6.731
X25.204Y6.889
X25.328Y7.065
X25.428Y7.257
X25.513Y7.432
X25.577Y7.617
X25.618Y7.808
X25.669Y7.982
X25.700Y8.161
X25.710Y8.341
Y8.717
X25.709Y8.759
X25.741Y8.891
X46.432
X46.287Y8.925
X46.096Y8.995
X45.916Y9.090
X45.752Y9.205
X45.610Y9.293
X45.478Y9.396
X45.357Y9.512
X45.282Y9.587
X45.207Y9.662
X45.060Y9.819
X44.935Y9.996
X44.836Y10.187
X44.736Y10.397
X44.668Y10.621
X44.633Y10.850
X44.589Y11.013
X44.573Y11.114
X25.244
X25.211Y11.209
X25.143Y11.417
X25.046Y11.615
X24.923Y11.798
X24.777Y11.961
X24.728Y12.145
X24.658Y12.322
Y12.475
X24.645Y12.678
X24.605Y12.880
X24.540Y13.075
X24.451Y13.259
X24.412Y13.336
X44.658
X24.412
X24.376Y13.409
X24.276Y13.600
X24.151Y13.777
X24.004Y13.935
X23.929Y14.010
X23.772Y14.157
X23.595Y14.282
X23.404Y14.381
X23.220Y14.470
X23.025Y14.535
X22.823Y14.575
X22.620Y14.588
X22.018
X21.815Y14.575
X21.613Y14.535
X21.418Y14.470
X21.234Y14.381
X21.043Y14.282
X20.866Y14.157
X20.709Y14.010
X20.633Y13.935
X20.622Y13.924
X20.429Y13.792
X20.258Y13.634
X20.142Y13.514
X20.039Y13.381
X20.011Y13.336
X19.788
G0Z5.080
G0X16.050Y15.559
G1Z-8.000F300.0
G1X44.628F1000.0
Y15.405
X44.642Y15.196
X44.684Y14.990
X44.752Y14.792
X44.827Y14.567
X44.887Y14.378
X44.971Y14.198
X45.076Y14.030
X44.952Y13.886
X44.846Y13.728
X44.760Y13.559
X44.675Y13.384
X44.658Y13.336
X44.675Y13.384
X44.760Y13.559
X44.846Y13.728
X44.952Y13.886
X45.076Y14.030
X44.971Y14.198
X44.887Y14.378
X44.827Y14.567
X44.752Y14.792
X44.684Y14.990
X44.642Y15.196
X44.628Y15.405
Y15.559
X16.050
G0Z5.080
G0X11.236Y11.114
G1Z-8.000F300.0
G1X11.509F1000.0
X11.471Y11.224
X11.430Y11.415
X11.378Y11.596
X11.347Y11.782
X11.238Y12.078
X11.155Y12.250
X11.094Y12.431
X11.055Y12.617
X11.004Y12.791
X10.973Y12.970
X10.962Y13.151
Y13.226
X10.968Y13.336
X9.793
X9.709Y13.506
X9.579Y13.694
X9.426Y13.859
X9.351Y13.935
X9.275Y14.010
X9.200Y14.085
X9.029Y14.243
X8.836Y14.374
X8.695Y14.494
X8.540Y14.598
X8.374Y14.682
X8.370Y14.684
X8.294Y14.837
X8.195Y15.028
X8.070Y15.205
X7.923Y15.362
X7.802Y15.478
X7.699Y15.559
X12.660
X12.736Y15.585
X12.942Y15.626
X13.151Y15.640
X13.301
X13.545Y15.621
X13.784Y15.565
X13.978
X14.072Y15.559
X15.366
X15.556Y15.546
X15.856
X16.037Y15.557
X16.050Y15.559
X16.216Y15.588
X16.390Y15.639
X16.581Y15.679
X16.766Y15.743
X16.941Y15.829
X17.111Y15.915
X17.271Y16.022
X17.415Y16.147
X17.434
X17.638Y16.161
X17.840Y16.200
X18.035Y16.265
X18.218Y16.355
X18.410Y16.454
X18.587Y16.579
X18.744Y16.726
X18.785Y16.765
X19.012Y16.749
X19.614
X19.817Y16.762
X20.019Y16.801
X20.214Y16.867
X20.398Y16.956
X20.589Y17.055
X20.766Y17.180
X20.923Y17.327
X20.999Y17.402
X21.074Y17.477
X21.149Y17.552
X21.289Y17.701
X21.347Y17.781
X45.598
G0Z5.080
G0X63.460Y0.001
G1Z-8.000F300.0
G1X58.808F1000.0
X58.869Y0.181
X58.908Y0.369
X58.925Y0.559
X59.099Y0.719
X59.174Y0.794
X59.249Y0.870
X59.324Y0.945
X59.477Y1.110
X59.607Y1.298
X59.708Y1.502
X59.779Y1.716
X59.844Y1.903
X59.885Y2.097
X59.922Y2.224
X63.500
Y4.446
X59.328
X59.258Y4.660
X59.156Y4.864
X59.027Y5.052
X58.873Y5.217
X58.798Y5.293
X58.723Y5.368
X58.565Y5.515
X58.388Y5.640
X58.197Y5.739
X58.004Y5.832
X57.801Y5.898
X57.627Y5.959
X57.447Y6.000
X57.264Y6.019
X57.233Y6.210
X57.180Y6.395
X57.127Y6.628
X57.111Y6.669
X63.500
Y8.891
X55.791
X55.629Y9.008
X55.451Y9.105
X55.410Y9.296
X55.345Y9.481
X55.275Y9.695
X55.174Y9.897
X55.047Y10.083
X55.036Y10.102
X54.961Y10.253
X54.862Y10.444
X54.737Y10.621
X54.590Y10.778
X54.581Y10.787
X54.510Y10.929
X54.414Y11.114
X63.500
Y13.336
X53.604
X53.584Y13.375
X53.459Y13.552
X53.312Y13.709
X53.283Y13.739
X53.256Y13.923
X53.208Y14.103
X53.139Y14.276
Y14.428
X53.122Y14.661
X53.071Y14.889
X52.987Y15.106
X52.989Y15.180
Y15.255
X52.975Y15.464
X52.956Y15.559
X63.500
Y17.781
X52.736
X52.706Y17.843
X52.631Y17.993
X52.532Y18.184
X52.407Y18.361
X52.260Y18.519
X52.185Y18.594
X52.110Y18.669
X52.035Y18.744
X51.877Y18.891
X51.700Y19.016
X51.509Y19.115
X51.244Y19.235
X51.208Y19.270
X51.050Y19.417
X50.874Y19.542
X50.682Y19.641
X50.490Y19.734
X50.286Y19.800
X50.088Y19.868
X49.882Y19.910
X49.673Y19.924
X49.372
X49.169Y19.910
X48.967Y19.871
X48.772Y19.806
X48.588Y19.716
X48.438Y19.641
X48.249Y19.543
X48.075Y19.421
X47.912Y19.341
X47.747Y19.257
X47.593Y19.155
X47.452Y19.036
X47.311Y18.965
X47.119Y18.866
X46.942Y18.741
X46.785Y18.594
X46.710Y18.519
X46.635Y18.444
X46.559Y18.368
X46.484Y18.293
X46.483Y18.292
X46.291Y18.227
X46.108Y18.138
X45.917Y18.039
X45.740Y17.914
X45.598Y17.781
G0Z5.080
G0X22.676Y20.004
G1Z-8.000F300.0
G1X63.500F1000.0
Y22.226
X21.948
X21.900Y22.276
X21.825Y22.351
X21.790Y22.388
X21.670Y22.652
X21.587Y22.817
X21.485Y22.971
X21.366Y23.111
X21.295Y23.253
X21.187Y23.459
X21.050Y23.646
X21.032Y23.838
X20.991Y24.028
X20.928Y24.210
X20.861Y24.413
X20.844Y24.449
X63.500
G0Z5.080
G0Y26.671
G1Z-8.000F300.0
G1X52.560F1000.0
X52.483Y26.646
X52.281Y26.606
X52.078Y26.593
X51.627
X51.423Y26.606
X51.221Y26.646
X51.145Y26.671
X18.629
G0Z5.080
G0X12.843Y17.781
G1Z-8.000F300.0
G1X5.993F1000.0
X5.940Y17.884
X5.815Y18.061
X5.668Y18.218
X5.593Y18.293
X5.518Y18.368
X5.443Y18.444
X5.307Y18.572
X5.157Y18.685
X4.995Y18.778
X4.767Y19.045
X4.691Y19.120
X4.534Y19.267
X4.357Y19.392
X4.166Y19.491
X4.010Y19.568
X3.847Y19.629
X3.678Y19.670
X3.639Y19.870
X3.594Y20.004
X13.356
X13.340Y20.052
X13.267Y20.269
X13.178Y20.456
X13.114Y20.654
X13.046Y20.852
X13.005Y21.058
X12.991Y21.267
Y21.310
X12.935Y21.549
X12.916Y21.793
Y22.226
X0.000
Y24.449
X14.242
X14.247Y24.452
X14.454Y24.525
X14.667Y24.568
X14.879Y24.583
X15.396
Y24.724
X15.409Y24.927
X15.449Y25.129
X15.514Y25.324
X15.603Y25.508
X15.702Y25.699
X15.827Y25.876
X15.974Y26.033
X16.049Y26.109
X16.207Y26.256
X16.384Y26.381
X16.575Y26.480
X16.750Y26.566
X16.935Y26.629
X17.126Y26.670
X17.132Y26.671
X0.000
Y28.894
X49.513
Y28.975
X49.457Y29.214
X49.438Y29.458
Y29.505
X49.269Y29.801
X49.194Y29.951
X49.105Y30.135
X49.040Y30.330
X49.000Y30.532
X48.987Y30.736
Y31.116
X0.000
Y33.339
X49.449
X49.438Y33.516
Y33.760
X49.415Y33.784
X49.299Y33.905
X49.196Y34.037
X49.108Y34.179
X48.958Y34.405
X48.936Y34.433
X48.771Y34.578
X48.626Y34.745
X48.507Y34.931
X48.388Y35.102
X48.292Y35.287
X48.217Y35.437
X48.155Y35.561
X0.000
Y37.784
X47.848
X47.903Y37.951
X48.005Y38.155
X48.134Y38.343
X48.288Y38.508
X48.363Y38.583
X48.521Y38.730
X48.697Y38.855
X48.889Y38.954
X49.072Y39.043
X49.267Y39.109
X49.469Y39.148
X49.673Y39.161
X50.199
X50.424Y39.145
X50.650Y39.161
X51.176
X51.385Y39.148
X51.591Y39.106
X51.789Y39.038
X51.935Y38.994
X52.126Y38.954
X52.311Y38.890
X52.486Y38.804
X52.636Y38.729
X52.820Y38.634
X52.992Y38.515
X53.148Y38.373
X53.282Y38.212
X53.394Y38.038
X53.513Y37.867
X53.556Y37.784
G0Z5.080
G0X63.500Y26.671
G1Z-8.000F300.0
G1Y28.894F1000.0
X54.116
Y29.082
X54.102Y29.291
X54.061Y29.497
X53.993Y29.696
X53.926Y29.899
X53.834Y30.092
X53.807Y30.151
X53.769Y30.365
X53.702Y30.572
X53.608Y30.768
X53.515Y30.950
Y30.952
X54.407
X54.616Y30.965
X54.822Y31.007
X55.020Y31.075
X55.148Y31.116
X63.500
Y33.339
X56.746
Y33.666
X56.732Y33.879
X56.688Y34.092
X56.615Y34.298
X56.514Y34.493
X56.388Y34.670
X56.243Y34.826
X56.168Y34.901
X56.093Y34.976
X56.017Y35.051
X55.867Y35.192
X55.699Y35.313
X55.518Y35.411
X55.532Y35.561
X63.500
Y37.784
X53.556
G0Z5.080
G0X63.500Y40.006
G1Z-8.000F300.0
G1X0.000F1000.0
Y42.229
X63.500
Y44.451
X5.880
X5.889Y44.461
X6.015Y44.638
X6.115Y44.833
X6.189Y45.039
X6.232Y45.252
X6.247Y45.464
Y45.840
X6.234Y46.044
X6.194Y46.246
X6.129Y46.441
X6.040Y46.624
X6.014Y46.674
X63.500
Y48.896
X55.844
X55.861Y48.947
X55.905Y49.160
X55.919Y49.372
Y49.466
X56.049Y49.617
X56.158Y49.782
X56.243Y49.866
X56.318Y49.941
X56.393Y50.016
X56.540Y50.174
X56.665Y50.351
X56.764Y50.542
X56.857Y50.735
X56.923Y50.938
X56.985Y51.119
X63.500
Y53.341
X56.605
X56.579Y53.438
X56.535Y53.641
X56.464Y53.838
X56.368Y54.024
X56.249Y54.195
X56.161Y54.337
X56.058Y54.469
X55.942Y54.590
X55.867Y54.665
X55.792Y54.740
X55.717Y54.815
X55.642Y54.890
X55.567Y54.965
X55.409Y55.112
X55.232Y55.237
X55.041Y55.337
X54.848Y55.429
X54.645Y55.496
X54.444Y55.564
X63.500
Y57.786
X52.270
X52.349Y57.951
X52.415Y58.152
X52.483Y58.350
X52.524Y58.557
X52.538Y58.766
Y58.841
X52.524Y59.050
X52.483Y59.256
X52.415Y59.454
X52.344Y59.669
X52.243Y59.873
X52.149Y60.009
X63.500
Y62.231
X50.388
X50.377Y62.255
X50.302Y62.405
X50.207Y62.589
X50.087Y62.761
X49.946Y62.917
X49.785Y63.052
X49.611Y63.163
X49.425Y63.290
X49.222Y63.391
X49.009Y63.461
X48.810Y63.529
X48.604Y63.571
X48.395Y63.585
X48.320
X48.111Y63.571
X47.905Y63.529
X47.707Y63.461
X47.503Y63.395
X47.311Y63.302
X47.119Y63.203
X46.942Y63.078
X46.785Y62.931
X46.710Y62.856
X46.599Y62.741
X46.435Y62.575
X46.297Y62.386
X46.215Y62.231
G0Z5.080
G0X0.000Y44.451
G1Z-8.000F300.0
G1X2.688F1000.0
X2.670Y44.470
X2.540Y44.658
X2.439Y44.862
